;FLAVOR:Marlin
;TIME:9120
;Filament used: 9.14199m
;Layer height: 0.2
;MINX:201.2
;MINY:201.2
;MINZ:0.2
;MAXX:298.8
;MAXY:298.8
;MAXZ:10.2
;Generated with Cura_SteamEngine 5.4.0
M82 ;absolute extrusion mode
; X5SA Start Code
G21 ; Set units to millimeters
G90 ; Set all axis to Absolute
M82 ; Set extrusion to Absolute
M107 ; Disable all fans
M190 S62 ; Set bed temperature and wait
G28 ; Home all axis
; Uncomment the line below to enable ABL Mesh probing
;G29 ; Probe bed mesh for ABL
; For best results do not run nozzle heater while performing ABL
G1 Z5.0 ; Raise nozzle to prevent scratching of heat bed
G1 X0 Y0 ; Move nozzle to Home before heating
M109 S218 T0 ; Set nozzle temp and wait
G92 E0 ; Set Extruder position to zero
; Uncomment the following lines to enable nozzle purge line along left edge of bed
;G1 Z2.0 F3000 ; Raise Z axis
;G1 X1.1 Y20 Z0.2 F3600.0 ; Move to purge line start position
;G1 Y290 F1500.0 E15 ; Draw first purge line
;G1 X1.4 F3600.0 ; Move to side
;G1 Y20 F1500.0 E30 ; Draw second purge line
;G92 E0 ; Reset Extruder
;G1 Z2.0 F3000 ; Move Z Axis up little to prevent scratching of Heat Bed
;G1 X5 Y20 Z0.2 F3600.0 ; Move over to finish nozzle wipe
;G92 E0

G92 E0
G92 E0
G1 F2700 E-6.5
;LAYER_COUNT:50
;LAYER:0
M107
G1 F300 Z0.4
G0 F2700 X204.578 Y204.462 Z0.4
;TYPE:SKIRT
G1 F300 Z0.2
G1 F2700 E0
G1 F1800 X206.027 Y203.262 E0.05647
G1 X207.832 Y202.231 E0.11887
G1 X209.706 Y201.558 E0.17864
G1 X210.742 Y201.342 E0.21041
G1 X212.166 Y201.209 E0.25334
G1 X287.537 Y201.2 E2.51577
G1 X289.075 Y201.325 E2.56209
G1 X291.368 Y201.897 E2.63303
G1 X292.652 Y202.458 E2.67509
G1 X294.498 Y203.644 E2.74095
G1 X295.402 Y204.437 E2.77705
G1 X296.904 Y206.268 E2.84813
G1 X297.691 Y207.65 E2.89587
G1 X298.352 Y209.399 E2.952
G1 X298.705 Y211.126 E3.00491
G1 X298.8 Y212.461 E3.04508
G1 X298.76 Y288.356 E5.32325
G1 X298.61 Y289.467 E5.3569
G1 X298.019 Y291.609 E5.4236
G1 X297.534 Y292.676 E5.45878
G1 X296.496 Y294.309 E5.51686
G1 X295.195 Y295.762 E5.5754
G1 X294.189 Y296.592 E5.61455
G1 X292.121 Y297.795 E5.68637
G1 X290.639 Y298.339 E5.73376
G1 X288.691 Y298.727 E5.79338
G1 X287.537 Y298.8 E5.82809
G1 X211.628 Y298.757 E8.10667
G1 X210.622 Y298.627 E8.13712
G1 X208.313 Y297.98 E8.2091
G1 X206.936 Y297.32 E8.25493
G1 X205.65 Y296.464 E8.30131
G1 X204.112 Y295.05 E8.36402
G1 X203.202 Y293.89 E8.40827
G1 X202.21 Y292.138 E8.46871
G1 X201.736 Y290.901 E8.50847
G1 X201.281 Y288.764 E8.57406
G1 X201.2 Y287.539 E8.61091
G1 X201.24 Y211.644 E10.88907
G1 X201.39 Y210.533 E10.92272
G1 X202.002 Y208.332 E10.9913
G1 X202.412 Y207.424 E11.0212
G1 X203.65 Y205.496 E11.08998
G1 X204.578 Y204.462 E11.13168
G0 F2700 X204.833 Y204.77
G1 F1800 X206.282 Y203.57 E11.18816
G1 X207.968 Y202.607 E11.24644
G1 X209.788 Y201.95 E11.30452
G1 X210.824 Y201.734 E11.33629
G1 X212.166 Y201.609 E11.37675
G1 X287.537 Y201.6 E13.63918
G1 X289.042 Y201.724 E13.68451
G1 X291.208 Y202.264 E13.75152
G1 X292.492 Y202.825 E13.79358
G1 X294.234 Y203.945 E13.85574
G1 X295.138 Y204.738 E13.89184
G1 X296.556 Y206.466 E13.95894
G1 X297.343 Y207.848 E14.00668
G1 X297.96 Y209.48 E14.05905
G1 X298.306 Y211.155 E14.11039
G1 X298.4 Y212.461 E14.14969
G1 X298.363 Y288.304 E16.42629
G1 X298.224 Y289.361 E16.45829
G1 X297.633 Y291.503 E16.52499
G1 X297.196 Y292.461 E16.5566
G1 X296.158 Y294.094 E16.61468
G1 X294.94 Y295.453 E16.66946
G1 X293.934 Y296.283 E16.70861
G1 X291.983 Y297.419 E16.77638
G1 X290.501 Y297.963 E16.82377
G1 X288.666 Y298.328 E16.87993
G1 X287.537 Y298.4 E16.91389
G1 X211.679 Y298.36 E19.19094
G1 X210.673 Y298.23 E19.22138
G1 X208.486 Y297.619 E19.28955
G1 X207.109 Y296.959 E19.33538
G1 X205.92 Y296.169 E19.37823
G1 X204.427 Y294.803 E19.43898
G1 X203.517 Y293.643 E19.48323
G1 X202.584 Y291.995 E19.54008
G1 X202.11 Y290.758 E19.57984
G1 X201.68 Y288.737 E19.64187
G1 X201.6 Y287.539 E19.67791
G1 X201.637 Y211.696 E21.95451
G1 X201.776 Y210.639 E21.98651
G1 X202.367 Y208.497 E22.05321
G1 X202.777 Y207.589 E22.08311
G1 X203.949 Y205.762 E22.14827
G1 X204.833 Y204.77 E22.18815
G0 F2700 X205.088 Y205.078
G1 F1800 X206.537 Y203.878 E22.24463
G1 X208.104 Y202.983 E22.2988
G1 X209.87 Y202.342 E22.35519
G1 X210.906 Y202.126 E22.38696
G1 X212.166 Y202.009 E22.42494
G1 X287.537 Y202 E24.68737
G1 X289.009 Y202.123 E24.73171
G1 X291.048 Y202.631 E24.79479
G1 X292.332 Y203.192 E24.83685
G1 X293.97 Y204.246 E24.89532
G1 X294.874 Y205.039 E24.93141
G1 X296.208 Y206.664 E24.99452
G1 X296.995 Y208.046 E25.04226
G1 X297.568 Y209.562 E25.09091
G1 X297.907 Y211.184 E25.14065
G1 X298 Y212.461 E25.17908
G1 X297.966 Y288.253 E27.45415
G1 X297.838 Y289.255 E27.48447
G1 X297.268 Y291.338 E27.5493
G1 X296.858 Y292.246 E27.5792
G1 X295.82 Y293.879 E27.63729
G1 X294.685 Y295.144 E27.6883
G1 X293.679 Y295.974 E27.72745
G1 X291.845 Y297.043 E27.79117
G1 X290.363 Y297.587 E27.83856
G1 X288.64 Y297.929 E27.89129
G1 X287.537 Y298 E27.92447
G1 X211.73 Y297.963 E30.19999
G1 X210.724 Y297.833 E30.23043
G1 X208.594 Y297.234 E30.29685
G1 X207.329 Y296.625 E30.33899
G1 X206.189 Y295.873 E30.37999
G1 X204.741 Y294.555 E30.43876
G1 X203.865 Y293.445 E30.48121
G1 X202.958 Y291.852 E30.53623
G1 X202.484 Y290.615 E30.576
G1 X202.079 Y288.71 E30.63446
G1 X202 Y287.539 E30.66969
G1 X202.034 Y211.747 E32.94476
G1 X202.162 Y210.745 E32.97508
G1 X202.732 Y208.662 E33.0399
G1 X203.142 Y207.754 E33.06981
G1 X204.249 Y206.027 E33.13138
G1 X205.088 Y205.078 E33.16941
G0 F2700 X205.388 Y205.343
G1 F1800 X206.791 Y204.187 E33.22398
G1 X208.241 Y203.359 E33.2741
G1 X209.952 Y202.734 E33.32878
G1 X210.988 Y202.518 E33.36054
G1 X212.166 Y202.409 E33.39605
G1 X287.537 Y202.4 E35.65849
G1 X288.975 Y202.522 E35.70181
G1 X290.888 Y202.998 E35.76098
G1 X292.172 Y203.559 E35.80304
G1 X293.706 Y204.547 E35.85781
G1 X294.61 Y205.34 E35.89391
G1 X295.86 Y206.862 E35.95303
G1 X296.647 Y208.244 E36.00077
G1 X297.176 Y209.644 E36.04569
G1 X297.515 Y211.266 E36.09543
G1 X297.6 Y212.461 E36.13139
G1 X297.569 Y288.204 E38.40499
G1 X297.452 Y289.15 E38.4336
G1 X296.903 Y291.173 E38.49652
G1 X296.493 Y292.081 E38.52643
G1 X295.483 Y293.664 E38.58279
G1 X294.43 Y294.835 E38.63007
G1 X293.424 Y295.665 E38.66921
G1 X291.706 Y296.668 E38.72893
G1 X290.284 Y297.195 E38.77445
G1 X288.614 Y297.53 E38.82558
G1 X287.537 Y297.6 E38.85798
G1 X211.781 Y297.566 E41.13196
G1 X210.775 Y297.436 E41.16241
G1 X208.767 Y296.873 E41.22501
G1 X207.548 Y296.29 E41.26557
G1 X206.457 Y295.576 E41.30471
G1 X205.054 Y294.306 E41.36152
G1 X204.212 Y293.246 E41.40215
G1 X203.332 Y291.709 E41.45531
G1 X202.858 Y290.472 E41.49508
G1 X202.478 Y288.683 E41.54998
G1 X202.4 Y287.539 E41.5844
G1 X202.431 Y211.796 E43.858
G1 X202.548 Y210.85 E43.88661
G1 X203.097 Y208.827 E43.94953
G1 X203.507 Y207.919 E43.97944
G1 X204.549 Y206.292 E44.03743
G1 X205.388 Y205.343 E44.07545
G0 F2700 X205.688 Y205.608
G1 F1800 X207.045 Y204.496 E44.12812
G1 X208.379 Y203.734 E44.17423
G1 X210.034 Y203.126 E44.22716
G1 X211.07 Y202.91 E44.25892
G1 X212.166 Y202.809 E44.29196
G1 X287.537 Y202.8 E46.55439
G1 X288.941 Y202.921 E46.59669
G1 X290.728 Y203.365 E46.65197
G1 X292.012 Y203.926 E46.69403
G1 X293.442 Y204.848 E46.7451
G1 X294.346 Y205.641 E46.7812
G1 X295.512 Y207.06 E46.83633
G1 X296.299 Y208.442 E46.88406
G1 X296.784 Y209.726 E46.92526
G1 X297.123 Y211.348 E46.975
G1 X297.2 Y212.461 E47.00849
G1 X297.172 Y288.157 E49.28068
G1 X297.066 Y289.046 E49.30756
G1 X296.538 Y291.008 E49.36854
G1 X296.128 Y291.916 E49.39845
G1 X295.185 Y293.397 E49.45115
G1 X294.175 Y294.526 E49.49662
G1 X293.169 Y295.356 E49.53577
G1 X291.566 Y296.293 E49.59151
G1 X290.204 Y296.803 E49.63516
G1 X288.588 Y297.131 E49.68466
G1 X287.537 Y297.2 E49.71628
G1 X211.832 Y297.169 E51.98873
G1 X210.826 Y297.039 E52.01918
G1 X208.939 Y296.512 E52.07799
G1 X207.767 Y295.955 E52.11694
G1 X206.676 Y295.241 E52.15608
G1 X205.323 Y294.01 E52.21099
G1 X204.559 Y293.046 E52.24791
G1 X203.706 Y291.566 E52.29919
G1 X203.232 Y290.329 E52.33895
G1 X202.877 Y288.655 E52.39032
G1 X202.8 Y287.539 E52.4239
G1 X202.828 Y211.843 E54.69609
G1 X202.934 Y210.954 E54.72296
G1 X203.462 Y208.992 E54.78395
G1 X203.872 Y208.084 E54.81385
G1 X204.849 Y206.557 E54.86827
G1 X205.688 Y205.608 E54.90629
G0 F2700 X205.988 Y205.873
G1 F1800 X207.245 Y204.843 E54.95507
G1 X208.518 Y204.109 E54.99918
G1 X210.116 Y203.518 E55.05033
G1 X211.152 Y203.302 E55.08209
G1 X212.166 Y203.209 E55.11266
G1 X287.537 Y203.2 E57.37509
G1 X288.846 Y203.31 E57.41452
G1 X290.568 Y203.732 E57.46774
G1 X291.852 Y204.293 E57.5098
G1 X293.178 Y205.149 E57.55718
G1 X294.082 Y205.942 E57.59327
G1 X295.164 Y207.258 E57.64441
G1 X295.951 Y208.64 E57.69215
G1 X296.393 Y209.809 E57.72967
G1 X296.724 Y211.376 E57.77774
G1 X296.8 Y212.461 E57.81039
G1 X296.775 Y288.111 E60.0812
G1 X296.679 Y288.943 E60.10634
G1 X296.173 Y290.843 E60.16536
G1 X295.763 Y291.751 E60.19526
G1 X294.848 Y293.181 E60.24622
G1 X293.92 Y294.217 E60.28797
G1 X292.914 Y295.047 E60.32712
G1 X291.426 Y295.918 E60.37888
G1 X290.064 Y296.428 E60.42253
G1 X288.561 Y296.732 E60.46856
G1 X287.537 Y296.8 E60.49937
G1 X211.883 Y296.772 E62.77029
G1 X210.877 Y296.642 E62.80074
G1 X209.11 Y296.15 E62.8558
G1 X207.986 Y295.62 E62.8931
G1 X206.895 Y294.906 E62.93224
G1 X205.636 Y293.761 E62.98332
G1 X204.906 Y292.846 E63.01846
G1 X204.053 Y291.366 E63.06974
G1 X203.606 Y290.187 E63.10758
G1 X203.276 Y288.627 E63.15545
G1 X203.2 Y287.539 E63.18819
G1 X203.225 Y211.889 E65.45899
G1 X203.321 Y211.057 E65.48413
G1 X203.827 Y209.157 E65.54315
G1 X204.237 Y208.249 E65.57306
G1 X205.149 Y206.822 E65.62389
G1 X205.988 Y205.873 E65.66192
G0 F2700 X206.243 Y206.182
G1 F1800 X207.445 Y205.19 E65.7087
G1 X208.718 Y204.456 E65.75281
G1 X210.198 Y203.91 E65.80016
G1 X211.234 Y203.694 E65.83193
G1 X212.166 Y203.609 E65.86002
G1 X287.537 Y203.6 E68.12245
G1 X288.751 Y203.699 E68.15901
G1 X290.473 Y204.121 E68.21223
G1 X291.636 Y204.63 E68.25034
G1 X292.914 Y205.45 E68.29592
G1 X293.818 Y206.243 E68.33202
G1 X294.816 Y207.456 E68.37917
G1 X295.603 Y208.838 E68.4269
G1 X296.002 Y209.893 E68.46076
G1 X296.325 Y211.404 E68.50714
G1 X296.4 Y212.461 E68.53895
G1 X296.377 Y288.067 E70.80844
G1 X296.292 Y288.841 E70.83181
G1 X295.808 Y290.678 E70.88883
G1 X295.398 Y291.586 E70.91874
G1 X294.549 Y292.915 E70.96608
G1 X293.665 Y293.908 E71.00598
G1 X292.659 Y294.738 E71.04513
G1 X291.286 Y295.543 E71.09291
G1 X289.924 Y296.053 E71.13656
G1 X288.534 Y296.333 E71.17913
G1 X287.537 Y296.4 E71.20912
G1 X211.933 Y296.375 E73.47855
G1 X210.983 Y296.256 E73.50729
G1 X209.28 Y295.788 E73.5603
G1 X208.205 Y295.285 E73.59593
G1 X207.114 Y294.571 E73.63507
G1 X205.948 Y293.51 E73.68239
G1 X205.253 Y292.646 E73.71567
G1 X204.4 Y291.166 E73.76695
G1 X203.997 Y290.103 E73.80107
G1 X203.675 Y288.599 E73.84724
G1 X203.6 Y287.539 E73.87914
G1 X203.623 Y211.933 E76.14862
G1 X203.708 Y211.159 E76.172
G1 X204.192 Y209.322 E76.22902
G1 X204.602 Y208.414 E76.25893
G1 X205.45 Y207.086 E76.30622
G1 X206.243 Y206.182 E76.34232
G0 F2700 X206.544 Y206.446
G1 F1800 X207.645 Y205.537 E76.38518
G1 X208.918 Y204.803 E76.42929
G1 X210.28 Y204.302 E76.47285
G1 X211.316 Y204.086 E76.50461
G1 X212.166 Y204.009 E76.53023
G1 X287.537 Y204 E78.79267
G1 X288.656 Y204.088 E78.82636
G1 X290.378 Y204.51 E78.87958
G1 X291.421 Y204.967 E78.91376
G1 X292.65 Y205.751 E78.95752
G1 X293.554 Y206.544 E78.99361
G1 X294.468 Y207.654 E79.03677
G1 X295.255 Y209.036 E79.08451
G1 X295.627 Y210.033 E79.11646
G1 X295.926 Y211.433 E79.15943
G1 X296 Y212.461 E79.19037
G1 X295.979 Y288.023 E81.45853
G1 X295.894 Y288.797 E81.4819
G1 X295.443 Y290.513 E81.53516
G1 X295.033 Y291.421 E81.56507
G1 X294.249 Y292.65 E81.60883
G1 X293.41 Y293.599 E81.64685
G1 X292.404 Y294.429 E81.686
G1 X291.144 Y295.169 E81.72986
G1 X289.844 Y295.661 E81.77158
G1 X288.507 Y295.934 E81.81255
G1 X287.537 Y296 E81.84173
G1 X211.981 Y295.978 E84.10971
G1 X211.088 Y295.87 E84.13671
G1 X209.448 Y295.425 E84.18772
G1 X208.424 Y294.95 E84.22161
G1 X207.333 Y294.236 E84.26075
G1 X206.259 Y293.258 E84.30435
G1 X205.6 Y292.446 E84.33574
G1 X204.747 Y290.966 E84.38701
G1 X204.372 Y289.963 E84.41916
G1 X204.074 Y288.57 E84.46192
G1 X204 Y287.539 E84.49295
G1 X204.021 Y211.977 E86.76111
G1 X204.106 Y211.203 E86.78448
G1 X204.557 Y209.487 E86.83774
G1 X204.967 Y208.579 E86.86765
G1 X205.751 Y207.35 E86.91141
G1 X206.544 Y206.446 E86.9475
G0 F2700 X206.845 Y206.71
G1 F1800 X207.899 Y205.846 E86.98841
G1 X209.057 Y205.178 E87.02854
G1 X210.362 Y204.694 E87.07032
G1 X211.398 Y204.478 E87.10209
G1 X212.166 Y204.409 E87.12523
G1 X287.537 Y204.4 E89.38767
G1 X288.561 Y204.477 E89.41849
G1 X290.283 Y204.899 E89.47171
G1 X291.207 Y205.305 E89.502
G1 X292.386 Y206.052 E89.5439
G1 X293.29 Y206.845 E89.58
G1 X294.121 Y207.853 E89.61921
G1 X294.88 Y209.176 E89.665
G1 X295.252 Y210.173 E89.69694
G1 X295.527 Y211.462 E89.7365
G1 X295.6 Y212.461 E89.76657
G1 X295.581 Y287.979 E92.03341
G1 X295.496 Y288.753 E92.05679
G1 X295.078 Y290.35 E92.10634
G1 X294.695 Y291.207 E92.13451
G1 X293.948 Y292.386 E92.17641
G1 X293.155 Y293.29 E92.21251
G1 X292.149 Y294.12 E92.25166
G1 X290.943 Y294.823 E92.29356
G1 X289.763 Y295.269 E92.33142
G1 X288.479 Y295.535 E92.37078
G1 X287.537 Y295.6 E92.39913
G1 X212.027 Y295.581 E94.66573
G1 X211.192 Y295.484 E94.69097
G1 X209.615 Y295.061 E94.73998
G1 X208.643 Y294.615 E94.77208
G1 X207.552 Y293.901 E94.81122
G1 X206.57 Y293.006 E94.8511
G1 X205.911 Y292.194 E94.88249
G1 X205.122 Y290.826 E94.92989
G1 X204.747 Y289.823 E94.96204
G1 X204.473 Y288.541 E95.00139
G1 X204.4 Y287.539 E95.03154
G1 X204.419 Y212.021 E97.29839
G1 X204.504 Y211.247 E97.32176
G1 X204.922 Y209.65 E97.37131
G1 X205.305 Y208.793 E97.39949
G1 X206.052 Y207.614 E97.44139
G1 X206.845 Y206.71 E97.47748
G0 F2700 X207.146 Y206.974
G1 F1800 X208.1 Y206.192 E97.51451
G1 X209.197 Y205.553 E97.55262
G1 X210.444 Y205.086 E97.59259
G1 X211.48 Y204.87 E97.62436
G1 X212.166 Y204.809 E97.64503
G1 X287.537 Y204.8 E99.90746
G1 X288.466 Y204.866 E99.93542
G1 X290.188 Y205.288 E99.98864
G1 X290.994 Y205.644 E100.01509
G1 X292.122 Y206.353 E100.05508
G1 X293.026 Y207.146 E100.09118
G1 X293.775 Y208.053 E100.12648
G1 X294.506 Y209.317 E100.17031
G1 X294.861 Y210.258 E100.2005
G1 X295.128 Y211.492 E100.2384
G1 X295.2 Y212.461 E100.26757
G1 X295.183 Y287.935 E102.53309
G1 X295.098 Y288.709 E102.55647
G1 X294.712 Y290.188 E102.60235
G1 X294.356 Y290.994 E102.6288
G1 X293.647 Y292.122 E102.66879
G1 X292.854 Y293.026 E102.70489
G1 X291.948 Y293.774 E102.74015
G1 X290.742 Y294.477 E102.78205
G1 X289.681 Y294.878 E102.8161
G1 X288.451 Y295.136 E102.85383
G1 X287.537 Y295.2 E102.88133
G1 X212.071 Y295.183 E105.14661
G1 X211.294 Y295.097 E105.17008
G1 X209.782 Y294.697 E105.21703
G1 X208.81 Y294.251 E105.24913
G1 X207.82 Y293.604 E105.28463
G1 X206.881 Y292.754 E105.32265
G1 X206.222 Y291.942 E105.35404
G1 X205.497 Y290.686 E105.39757
G1 X205.122 Y289.683 E105.42971
G1 X204.872 Y288.511 E105.46569
G1 X204.8 Y287.539 E105.49494
G1 X204.817 Y212.065 E107.76047
G1 X204.902 Y211.291 E107.78384
G1 X205.288 Y209.812 E107.82972
G1 X205.644 Y209.006 E107.85617
G1 X206.353 Y207.878 E107.89616
G1 X207.146 Y206.974 E107.93226
G0 F2700 X207.446 Y207.239
G1 F1800 X208.303 Y206.537 E107.96551
G1 X209.339 Y205.927 E108.0016
G1 X210.526 Y205.478 E108.0397
G1 X211.562 Y205.262 E108.07146
G1 X212.166 Y205.209 E108.08966
G1 X287.537 Y205.2 E110.35209
G1 X288.437 Y205.265 E110.37918
G1 X290.028 Y205.655 E110.42835
G1 X290.781 Y205.983 E110.45301
G1 X291.909 Y206.692 E110.493
G1 X292.761 Y207.446 E110.52715
G1 X293.429 Y208.254 E110.55862
G1 X294.132 Y209.46 E110.60052
G1 X294.47 Y210.343 E110.6289
G1 X294.737 Y211.577 E110.6668
G1 X294.8 Y212.461 E110.6934
G1 X294.785 Y287.891 E112.95761
G1 X294.7 Y288.665 E112.98098
G1 X294.345 Y290.028 E113.02326
G1 X294.017 Y290.781 E113.04791
G1 X293.308 Y291.909 E113.0879
G1 X292.554 Y292.761 E113.12206
G1 X291.747 Y293.428 E113.15348
G1 X290.541 Y294.131 E113.19538
G1 X289.598 Y294.487 E113.22564
G1 X288.423 Y294.737 E113.2617
G1 X287.537 Y294.8 E113.28836
G1 X212.113 Y294.785 E115.55239
G1 X211.395 Y294.71 E115.57406
