;FLAVOR:Marlin
;TIME:24987
;Filament used: 28.5557m
;Layer height: 0.2
;MINX:-48.8
;MINY:-59.85
;MINZ:0.2
;MAXX:48.8
;MAXY:59.85
;MAXZ:30
;Generated with Cura_SteamEngine 5.4.0
M82 ;absolute extrusion mode
; X5SA Start Code
G21 ; Set units to millimeters
G90 ; Set all axis to Absolute
M82 ; Set extrusion to Absolute
M107 ; Disable all fans
M190 S62 ; Set bed temperature and wait
G28 ; Home all axis
; Uncomment the line below to enable ABL Mesh probing
;G29 ; Probe bed mesh for ABL
; For best results do not run nozzle heater while performing ABL
G1 Z5.0 ; Raise nozzle to prevent scratching of heat bed
G1 X0 Y0 ; Move nozzle to Home before heating
M109 S218 T0 ; Set nozzle temp and wait
G92 E0 ; Set Extruder position to zero
; Uncomment the following lines to enable nozzle purge line along left edge of bed
;G1 Z2.0 F3000 ; Raise Z axis
;G1 X1.1 Y20 Z0.2 F3600.0 ; Move to purge line start position
;G1 Y290 F1500.0 E15 ; Draw first purge line
;G1 X1.4 F3600.0 ; Move to side
;G1 Y20 F1500.0 E30 ; Draw second purge line
;G92 E0 ; Reset Extruder
;G1 Z2.0 F3000 ; Move Z Axis up little to prevent scratching of Heat Bed
;G1 X5 Y20 Z0.2 F3600.0 ; Move over to finish nozzle wipe
;G92 E0

G92 E0
G92 E0
G1 F2700 E-6.5
;LAYER_COUNT:150
;LAYER:0
M107
G1 F300 Z0.4
G0 F2700 X-5.632 Y-36.65 Z0.4
;TYPE:SKIRT
G1 F300 Z0.2
G1 F2700 E0
G1 F1800 X5.633 Y-36.65 E0.33814
G1 X6.183 Y-36.69 E0.3547
G1 X6.721 Y-36.809 E0.37124
G1 X7.236 Y-37.005 E0.38778
G1 X7.717 Y-37.273 E0.40431
G1 X8.155 Y-37.607 E0.42084
G1 X8.539 Y-38.002 E0.43738
G1 X8.863 Y-38.448 E0.45392
G1 X9.118 Y-38.936 E0.47045
G1 X9.301 Y-39.456 E0.487
G1 X9.406 Y-39.997 E0.50354
G1 X9.433 Y-40.451 E0.51719
G1 X9.433 Y-41.861 E0.55952
G1 X12.241 Y-41.867 E0.64381
G1 X12.458 Y-41.874 E0.65032
G1 X12.794 Y-41.894 E0.66043
G1 X13.144 Y-41.931 E0.67099
G1 X13.548 Y-41.993 E0.68326
G1 X14.181 Y-42.147 E0.70282
G1 X14.604 Y-42.289 E0.71621
G1 X15.168 Y-42.53 E0.73462
G1 X15.568 Y-42.741 E0.74819
G1 X16.178 Y-43.142 E0.77011
G1 X16.501 Y-43.402 E0.78255
G1 X16.917 Y-43.792 E0.79967
G1 X17.209 Y-44.11 E0.81263
G1 X17.645 Y-44.686 E0.83431
G1 X17.87 Y-45.051 E0.84719
G1 X18.134 Y-45.564 E0.8645
G1 X18.283 Y-45.916 E0.87598
G1 X18.458 Y-46.425 E0.89213
G1 X18.554 Y-46.788 E0.9034
G1 X18.638 Y-47.198 E0.91597
G1 X18.676 Y-47.452 E0.92368
G1 X18.709 Y-47.754 E0.9328
G1 X18.734 Y-48.119 E0.94378
G1 X18.739 Y-48.25 E0.94771
G1 X27.772 Y-48.25 E1.21886
G1 X27.778 Y-48.103 E1.22328
G1 X27.808 Y-47.71 E1.23511
G1 X27.857 Y-47.325 E1.24676
G1 X27.917 Y-46.992 E1.25691
G1 X28.005 Y-46.615 E1.26853
G1 X28.098 Y-46.292 E1.27862
G1 X28.291 Y-45.77 E1.29533
G1 X28.467 Y-45.383 E1.30809
G1 X28.81 Y-44.781 E1.32889
G1 X29.083 Y-44.39 E1.3432
G1 X29.593 Y-43.8 E1.36661
G1 X29.976 Y-43.439 E1.38241
G1 X30.57 Y-42.98 E1.40494
G1 X30.945 Y-42.746 E1.41821
G1 X31.415 Y-42.497 E1.43418
G1 X31.701 Y-42.37 E1.44357
G1 X32.139 Y-42.207 E1.4576
G1 X32.521 Y-42.091 E1.46958
G1 X33.112 Y-41.962 E1.48774
G1 X33.464 Y-41.914 E1.49841
G1 X33.779 Y-41.884 E1.5079
G1 X34.297 Y-41.857 E1.52347
G1 X34.494 Y-41.852 E1.52939
G1 X36.463 Y-41.851 E1.58849
G1 X36.531 Y-41.706 E1.5933
G1 X36.752 Y-41.298 E1.60723
G1 X36.957 Y-40.969 E1.61886
G1 X37.2 Y-40.635 E1.63126
G1 X37.2 Y45.934 E4.22983
G1 X37.163 Y46.398 E4.2438
G1 X37.084 Y46.73 E4.25404
G1 X36.956 Y47.04 E4.26411
G1 X36.773 Y47.337 E4.27458
G1 X36.55 Y47.6 E4.28493
G1 X36.287 Y47.823 E4.29528
G1 X35.994 Y48.004 E4.30562
G1 X35.686 Y48.131 E4.31562
G1 X35.341 Y48.213 E4.32627
G1 X34.884 Y48.25 E4.34003
G1 X-34.884 Y48.25 E6.43427
G1 X-35.348 Y48.213 E6.44825
G1 X-35.68 Y48.134 E6.45849
G1 X-35.99 Y48.006 E6.46856
G1 X-36.287 Y47.823 E6.47903
G1 X-36.55 Y47.6 E6.48938
G1 X-36.773 Y47.337 E6.49973
G1 X-36.954 Y47.044 E6.51007
G1 X-37.081 Y46.736 E6.52007
G1 X-37.163 Y46.391 E6.53071
G1 X-37.2 Y45.934 E6.54448
G1 X-37.2 Y-41.854 E9.17963
G1 X-34.248 Y-41.86 E9.26824
G1 X-33.969 Y-41.871 E9.27663
G1 X-33.492 Y-41.907 E9.29098
G1 X-32.904 Y-41.998 E9.30884
G1 X-32.468 Y-42.101 E9.32229
G1 X-31.949 Y-42.263 E9.33861
G1 X-31.586 Y-42.406 E9.35032
G1 X-31.042 Y-42.673 E9.36851
G1 X-30.674 Y-42.891 E9.38135
G1 X-30.079 Y-43.326 E9.40348
G1 X-29.741 Y-43.628 E9.41708
G1 X-29.315 Y-44.077 E9.43566
G1 X-29.057 Y-44.397 E9.448
G1 X-28.712 Y-44.904 E9.46641
G1 X-28.546 Y-45.196 E9.47649
G1 X-28.318 Y-45.67 E9.49228
G1 X-28.159 Y-46.07 E9.5052
G1 X-27.973 Y-46.683 E9.52443
G1 X-27.896 Y-47.045 E9.53554
G1 X-27.837 Y-47.408 E9.54658
G1 X-27.799 Y-47.743 E9.5567
G1 X-27.779 Y-48.004 E9.56456
G1 X-27.768 Y-48.25 E9.57195
G1 X-18.725 Y-48.25 E9.84339
G1 X-18.71 Y-47.932 E9.85295
G1 X-18.681 Y-47.615 E9.8625
G1 X-18.628 Y-47.216 E9.87459
G1 X-18.49 Y-46.588 E9.89389
G1 X-18.361 Y-46.173 E9.90693
G1 X-18.174 Y-45.692 E9.92242
G1 X-18.009 Y-45.339 E9.93412
G1 X-17.692 Y-44.787 E9.95323
G1 X-17.423 Y-44.398 E9.96742
G1 X-16.926 Y-43.815 E9.99042
G1 X-16.595 Y-43.498 E10.00418
G1 X-16.071 Y-43.078 E10.02434
G1 X-15.695 Y-42.828 E10.03789
G1 X-15.062 Y-42.488 E10.05946
G1 X-14.588 Y-42.289 E10.07489
G1 X-13.977 Y-42.092 E10.09416
G1 X-13.624 Y-42.01 E10.10504
G1 X-13.271 Y-41.945 E10.11581
G1 X-12.996 Y-41.908 E10.12414
G1 X-12.705 Y-41.88 E10.13292
G1 X-12.424 Y-41.864 E10.14136
G1 X-12.212 Y-41.858 E10.14773
G1 X-9.432 Y-41.855 E10.23118
G1 X-9.432 Y-40.449 E10.27338
G1 X-9.392 Y-39.9 E10.28991
G1 X-9.273 Y-39.362 E10.30645
G1 X-9.077 Y-38.847 E10.32299
G1 X-8.809 Y-38.365 E10.33954
G1 X-8.474 Y-37.928 E10.35607
G1 X-8.08 Y-37.543 E10.37261
G1 X-7.633 Y-37.22 E10.38916
G1 X-7.145 Y-36.964 E10.4057
G1 X-6.625 Y-36.782 E10.42224
G1 X-6.084 Y-36.677 E10.43878
G1 X-5.632 Y-36.65 E10.45237
G0 F2700 X-5.632 Y-37.05
G1 F1800 X5.633 Y-37.05 E10.79052
G1 X6.153 Y-37.09 E10.80617
G1 X6.66 Y-37.209 E10.8218
G1 X7.143 Y-37.404 E10.83744
G1 X7.591 Y-37.67 E10.85308
G1 X7.993 Y-38.002 E10.86873
G1 X8.339 Y-38.392 E10.88438
G1 X8.622 Y-38.83 E10.90003
G1 X8.835 Y-39.305 E10.91566
G1 X8.972 Y-39.808 E10.93131
G1 X9.033 Y-40.451 E10.9507
G1 X9.033 Y-42.26 E11.005
G1 X12.24 Y-42.267 E11.10126
G1 X12.434 Y-42.273 E11.10709
G1 X12.77 Y-42.293 E11.11719
G1 X13.084 Y-42.326 E11.12667
G1 X13.488 Y-42.388 E11.13894
G1 X14.054 Y-42.526 E11.15643
G1 X14.477 Y-42.668 E11.16982
G1 X14.981 Y-42.884 E11.18628
G1 X15.381 Y-43.095 E11.19985
G1 X15.927 Y-43.453 E11.21945
G1 X16.25 Y-43.713 E11.2319
G1 X16.622 Y-44.062 E11.24721
G1 X16.914 Y-44.38 E11.26017
G1 X17.304 Y-44.896 E11.27958
G1 X17.529 Y-45.261 E11.29246
G1 X17.766 Y-45.72 E11.30796
G1 X17.915 Y-46.072 E11.31944
G1 X18.071 Y-46.528 E11.3339
G1 X18.167 Y-46.891 E11.34517
G1 X18.243 Y-47.257 E11.35639
G1 X18.281 Y-47.511 E11.3641
G1 X18.31 Y-47.782 E11.37228
G1 X18.335 Y-48.147 E11.38327
G1 X18.343 Y-48.373 E11.39005
G1 X18.344 Y-48.65 E11.39837
G1 X28.166 Y-48.65 E11.6932
G1 X28.167 Y-48.376 E11.70142
G1 X28.177 Y-48.133 E11.70872
G1 X28.207 Y-47.74 E11.72055
G1 X28.251 Y-47.396 E11.73096
G1 X28.311 Y-47.063 E11.74112
G1 X28.39 Y-46.725 E11.75154
G1 X28.483 Y-46.402 E11.76163
G1 X28.655 Y-45.935 E11.77657
G1 X28.831 Y-45.548 E11.78933
G1 X29.138 Y-45.01 E11.80792
G1 X29.411 Y-44.619 E11.82224
G1 X29.867 Y-44.091 E11.84318
G1 X30.25 Y-43.73 E11.85898
G1 X30.782 Y-43.32 E11.87914
G1 X31.157 Y-43.086 E11.89241
G1 X31.577 Y-42.863 E11.90668
G1 X31.863 Y-42.736 E11.91608
G1 X32.255 Y-42.59 E11.92863
G1 X32.637 Y-42.474 E11.94062
G1 X33.166 Y-42.358 E11.95687
G1 X33.518 Y-42.31 E11.96754
G1 X33.8 Y-42.284 E11.97604
G1 X34.318 Y-42.257 E11.99161
G1 X34.494 Y-42.252 E11.99689
G1 X36.72 Y-42.251 E12.06371
G1 X36.722 Y-42.245 E12.0639
G1 X36.894 Y-41.875 E12.07615
G1 X37.091 Y-41.51 E12.0886
G1 X37.296 Y-41.181 E12.10023
G1 X37.582 Y-40.788 E12.11482
G1 X37.6 Y-40.767 E12.11565
G1 X37.6 Y45.953 E14.71875
G1 X37.56 Y46.456 E14.7339
G1 X37.465 Y46.857 E14.74627
G1 X37.316 Y47.219 E14.75802
G1 X37.098 Y47.572 E14.77047
G1 X36.833 Y47.883 E14.78274
G1 X36.522 Y48.148 E14.795
G1 X36.172 Y48.364 E14.80735
G1 X35.813 Y48.512 E14.819
G1 X35.4 Y48.61 E14.83175
G1 X34.903 Y48.65 E14.84671
G1 X-34.903 Y48.65 E16.9421
G1 X-35.406 Y48.61 E16.95724
G1 X-35.807 Y48.515 E16.96961
G1 X-36.169 Y48.366 E16.98137
G1 X-36.522 Y48.148 E16.99382
G1 X-36.833 Y47.883 E17.00608
G1 X-37.098 Y47.572 E17.01835
G1 X-37.314 Y47.222 E17.03069
G1 X-37.462 Y46.863 E17.04235
G1 X-37.56 Y46.45 E17.05509
G1 X-37.6 Y45.953 E17.07006
G1 X-37.6 Y-41.938 E19.70831
G1 X-37.557 Y-42.254 E19.71788
G1 X-34.249 Y-42.26 E19.81718
G1 X-33.999 Y-42.27 E19.82469
G1 X-33.522 Y-42.306 E19.83905
G1 X-32.996 Y-42.387 E19.85502
G1 X-32.56 Y-42.49 E19.86847
G1 X-32.096 Y-42.636 E19.88307
G1 X-31.733 Y-42.779 E19.89478
G1 X-31.246 Y-43.017 E19.91105
G1 X-30.878 Y-43.235 E19.92389
G1 X-30.346 Y-43.625 E19.94369
G1 X-30.008 Y-43.927 E19.9573
G1 X-29.626 Y-44.328 E19.97392
G1 X-29.368 Y-44.648 E19.98626
G1 X-29.059 Y-45.102 E20.00275
G1 X-28.893 Y-45.394 E20.01283
G1 X-28.689 Y-45.818 E20.02695
G1 X-28.53 Y-46.218 E20.03987
G1 X-28.364 Y-46.767 E20.05709
G1 X-28.287 Y-47.129 E20.0682
G1 X-28.235 Y-47.453 E20.07805
G1 X-28.197 Y-47.788 E20.08817
G1 X-28.178 Y-48.021 E20.09519
G1 X-28.161 Y-48.407 E20.10678
G1 X-28.158 Y-48.549 E20.11105
G1 X-28.158 Y-48.65 E20.11408
G1 X-18.333 Y-48.65 E20.409
G1 X-18.332 Y-48.471 E20.41437
G1 X-18.328 Y-48.324 E20.41879
G1 X-18.31 Y-47.951 E20.43
G1 X-18.284 Y-47.667 E20.43856
G1 X-18.231 Y-47.268 E20.45064
G1 X-18.108 Y-46.707 E20.46788
G1 X-17.979 Y-46.292 E20.48092
G1 X-17.812 Y-45.861 E20.4948
G1 X-17.647 Y-45.508 E20.50649
G1 X-17.363 Y-45.014 E20.5236
G1 X-17.094 Y-44.625 E20.5378
G1 X-16.65 Y-44.103 E20.55837
G1 X-16.319 Y-43.786 E20.57212
G1 X-15.85 Y-43.411 E20.59015
G1 X-15.474 Y-43.161 E20.6037
G1 X-14.907 Y-42.857 E20.62301
G1 X-14.433 Y-42.658 E20.63844
G1 X-13.886 Y-42.481 E20.6557
G1 X-13.533 Y-42.399 E20.66658
G1 X-13.217 Y-42.341 E20.67622
G1 X-12.942 Y-42.304 E20.68455
G1 X-12.682 Y-42.279 E20.69239
G1 X-12.401 Y-42.263 E20.70084
G1 X-12.212 Y-42.258 E20.70652
G1 X-9.032 Y-42.255 E20.80197
G1 X-9.032 Y-40.449 E20.85618
G1 X-8.992 Y-39.93 E20.87181
G1 X-8.873 Y-39.422 E20.88747
G1 X-8.678 Y-38.939 E20.90311
G1 X-8.411 Y-38.491 E20.91876
G1 X-8.079 Y-38.09 E20.93439
G1 X-7.69 Y-37.743 E20.95004
G1 X-7.252 Y-37.461 E20.96567
G1 X-6.776 Y-37.248 E20.98133
G1 X-6.273 Y-37.111 E20.99697
G1 X-5.632 Y-37.05 E21.0163
G0 F2700 X-5.632 Y-37.45
G1 F1800 X5.633 Y-37.45 E21.35445
G1 X6.121 Y-37.49 E21.36914
G1 X6.596 Y-37.609 E21.38384
G1 X7.045 Y-37.803 E21.39853
G1 X7.457 Y-38.068 E21.41323
G1 X7.82 Y-38.396 E21.42792
G1 X8.125 Y-38.779 E21.44261
G1 X8.363 Y-39.207 E21.45731
G1 X8.529 Y-39.667 E21.47199
G1 X8.618 Y-40.148 E21.48667
G1 X8.633 Y-40.451 E21.49578
G1 X8.633 Y-42.659 E21.56206
G1 X12.239 Y-42.667 E21.6703
G1 X12.41 Y-42.672 E21.67544
G1 X12.746 Y-42.692 E21.68554
G1 X13.023 Y-42.722 E21.6939
G1 X13.427 Y-42.784 E21.70617
G1 X13.927 Y-42.905 E21.72162
G1 X14.35 Y-43.047 E21.73501
G1 X14.795 Y-43.238 E21.74954
G1 X15.195 Y-43.449 E21.76312
G1 X15.676 Y-43.765 E21.7804
G1 X15.999 Y-44.025 E21.79284
G1 X16.328 Y-44.333 E21.80637
G1 X16.62 Y-44.651 E21.81933
G1 X16.964 Y-45.106 E21.83645
G1 X17.189 Y-45.471 E21.84932
G1 X17.398 Y-45.876 E21.863
G1 X17.547 Y-46.228 E21.87448
G1 X17.684 Y-46.63 E21.88722
G1 X17.78 Y-46.993 E21.89849
G1 X17.847 Y-47.316 E21.9084
G1 X17.885 Y-47.57 E21.91611
G1 X17.911 Y-47.809 E21.92332
G1 X17.936 Y-48.174 E21.9343
G1 X17.943 Y-48.373 E21.94028
G1 X17.944 Y-49.05 E21.9606
G1 X28.564 Y-49.05 E22.27939
G1 X28.567 Y-48.378 E22.29956
G1 X28.576 Y-48.164 E22.30599
G1 X28.606 Y-47.771 E22.31782
G1 X28.645 Y-47.467 E22.32702
G1 X28.705 Y-47.134 E22.33718
G1 X28.774 Y-46.836 E22.34636
G1 X28.867 Y-46.513 E22.35645
G1 X29.019 Y-46.101 E22.36963
G1 X29.195 Y-45.714 E22.38239
G1 X29.466 Y-45.239 E22.39881
G1 X29.739 Y-44.848 E22.41312
G1 X30.141 Y-44.382 E22.43159
G1 X30.524 Y-44.021 E22.44739
G1 X30.994 Y-43.659 E22.4652
G1 X31.369 Y-43.425 E22.47847
G1 X31.739 Y-43.228 E22.49105
G1 X32.025 Y-43.101 E22.50044
G1 X32.371 Y-42.972 E22.51153
G1 X32.753 Y-42.856 E22.52351
G1 X33.22 Y-42.755 E22.53785
G1 X33.572 Y-42.707 E22.54852
G1 X33.821 Y-42.683 E22.55603
G1 X34.339 Y-42.656 E22.5716
G1 X34.494 Y-42.652 E22.57625
G1 X36.991 Y-42.651 E22.65121
G1 X37.085 Y-42.413 E22.65889
G1 X37.257 Y-42.043 E22.67113
G1 X37.431 Y-41.721 E22.68212
G1 X37.636 Y-41.392 E22.69376
G1 X37.888 Y-41.046 E22.70661
G1 X38 Y-40.913 E22.71182
G1 X38 Y45.973 E25.3199
G1 X37.957 Y46.515 E25.33623
G1 X37.847 Y46.978 E25.35051
G1 X37.67 Y47.407 E25.36444
G1 X37.424 Y47.806 E25.37851
G1 X37.117 Y48.167 E25.39274
G1 X36.756 Y48.474 E25.40696
G1 X36.357 Y48.72 E25.42103
G1 X35.936 Y48.894 E25.43471
G1 X35.46 Y49.007 E25.44939
G1 X34.923 Y49.05 E25.46556
G1 X-34.923 Y49.05 E27.56215
G1 X-35.465 Y49.007 E27.57847
G1 X-35.928 Y48.897 E27.59275
G1 X-36.357 Y48.72 E27.60668
G1 X-36.756 Y48.474 E27.62075
G1 X-37.117 Y48.167 E27.63498
G1 X-37.424 Y47.806 E27.6492
G1 X-37.67 Y47.407 E27.66327
G1 X-37.844 Y46.985 E27.67698
G1 X-37.957 Y46.51 E27.69163
G1 X-38 Y45.973 E27.7078
G1 X-38 Y-42.038 E30.34965
G1 X-37.953 Y-42.309 E30.35791
G1 X-37.925 Y-42.653 E30.36827
G1 X-34.249 Y-42.66 E30.47861
G1 X-34.029 Y-42.669 E30.48522
G1 X-33.552 Y-42.705 E30.49958
G1 X-33.088 Y-42.776 E30.51367
G1 X-32.652 Y-42.879 E30.52712
G1 X-32.242 Y-43.008 E30.54002
G1 X-31.879 Y-43.151 E30.55173
G1 X-31.45 Y-43.361 E30.56607
G1 X-31.082 Y-43.579 E30.57891
G1 X-30.612 Y-43.923 E30.59639
G1 X-30.274 Y-44.225 E30.61
G1 X-29.938 Y-44.579 E30.62465
G1 X-29.68 Y-44.899 E30.63699
G1 X-29.407 Y-45.299 E30.65152
G1 X-29.241 Y-45.591 E30.66161
G1 X-29.061 Y-45.966 E30.67409
G1 X-28.902 Y-46.366 E30.68701
G1 X-28.756 Y-46.85 E30.70219
G1 X-28.679 Y-47.212 E30.7133
G1 X-28.632 Y-47.498 E30.722
G1 X-28.594 Y-47.833 E30.73212
G1 X-28.578 Y-48.039 E30.73832
G1 X-28.561 Y-48.425 E30.74992
G1 X-28.558 Y-48.55 E30.75367
G1 X-28.557 Y-49.05 E30.76868
G1 X-17.935 Y-49.05 E31.08752
G1 X-17.932 Y-48.473 E31.10484
G1 X-17.929 Y-48.343 E31.10875
G1 X-17.911 Y-47.97 E31.11996
G1 X-17.888 Y-47.72 E31.12749
G1 X-17.835 Y-47.321 E31.13957
G1 X-17.726 Y-46.825 E31.15482
G1 X-17.597 Y-46.41 E31.16786
G1 X-17.45 Y-46.031 E31.18006
G1 X-17.285 Y-45.678 E31.19176
G1 X-17.034 Y-45.242 E31.20686
G1 X-16.765 Y-44.853 E31.22106
G1 X-16.373 Y-44.392 E31.23922
G1 X-16.042 Y-44.075 E31.25298
G1 X-15.628 Y-43.744 E31.26889
G1 X-15.252 Y-43.494 E31.28245
G1 X-14.752 Y-43.226 E31.29947
G1 X-14.278 Y-43.027 E31.31491
G1 X-13.796 Y-42.871 E31.33011
G1 X-13.443 Y-42.789 E31.34099
G1 X-13.164 Y-42.738 E31.3495
G1 X-12.889 Y-42.701 E31.35783
G1 X-12.66 Y-42.679 E31.36474
G1 X-12.379 Y-42.663 E31.37319
G1 X-12.211 Y-42.658 E31.37823
G1 X-8.632 Y-42.654 E31.48566
G1 X-8.632 Y-40.449 E31.55185
G1 X-8.592 Y-39.962 E31.56652
G1 X-8.473 Y-39.487 E31.58122
G1 X-8.279 Y-39.038 E31.5959
G1 X-8.014 Y-38.626 E31.61061
G1 X-7.685 Y-38.263 E31.62531
G1 X-7.302 Y-37.958 E31.64001
G1 X-6.875 Y-37.72 E31.65468
G1 X-6.414 Y-37.554 E31.66939
G1 X-5.933 Y-37.465 E31.68407
G1 X-5.632 Y-37.45 E31.69312
G0 F2700 X-5.632 Y-37.85
G1 F1800 X5.633 Y-37.85 E32.03126
G1 X6.087 Y-37.89 E32.04494
G1 X6.527 Y-38.008 E32.05862
G1 X6.939 Y-38.202 E32.07229
G1 X7.312 Y-38.465 E32.08599
G1 X7.633 Y-38.788 E32.09966
G1 X7.892 Y-39.163 E32.11334
G1 X8.082 Y-39.577 E32.12701
G1 X8.197 Y-40.018 E32.14069
G1 X8.233 Y-40.45 E32.1537
G1 X8.232 Y-43.058 E32.23199
G1 X12.238 Y-43.067 E32.35224
G1 X12.386 Y-43.072 E32.35668
G1 X12.722 Y-43.092 E32.36679
G1 X12.962 Y-43.117 E32.37403
G1 X13.366 Y-43.179 E32.3863
G1 X13.799 Y-43.284 E32.39967
G1 X14.222 Y-43.426 E32.41307
G1 X14.608 Y-43.591 E32.42567
G1 X15.008 Y-43.802 E32.43924
G1 X15.425 Y-44.077 E32.45424
G1 X15.748 Y-44.337 E32.46668
G1 X16.033 Y-44.603 E32.47839
G1 X16.325 Y-44.921 E32.49135
G1 X16.623 Y-45.316 E32.5062
G1 X16.848 Y-45.681 E32.51907
G1 X17.029 Y-46.031 E32.5309
G1 X17.178 Y-46.383 E32.54237
G1 X17.298 Y-46.732 E32.55345
G1 X17.394 Y-47.095 E32.56472
G1 X17.451 Y-47.375 E32.5733
G1 X17.489 Y-47.629 E32.58101
G1 X17.512 Y-47.836 E32.58726
G1 X17.537 Y-48.201 E32.59824
G1 X17.543 Y-48.374 E32.60344
G1 X17.545 Y-49.45 E32.63573
