;FLAVOR:Marlin
;TIME:17301
;Filament used: 19.7082m
;Layer height: 0.2
;MINX:203.633
;MINY:203.95
;MINZ:0.2
;MAXX:296.367
;MAXY:296.05
;MAXZ:21.2
;Generated with Cura_SteamEngine 5.0.0
M82 ;absolute extrusion mode
; X5SA Start Code
G21 ; Set units to millimeters
G90 ; Set all axis to Absolute
M82 ; Set extrusion to Absolute
M107 ; Disable all fans
M190 S85 ; Set bed temperature and wait
G28 ; Home all axis
; Uncomment the line below to enable ABL Mesh probing
;G29 ; Probe bed mesh for ABL
; For best results do not run nozzle heater while performing ABL
G1 Z5.0 ; Raise nozzle to prevent scratching of heat bed
G1 X0 Y0 ; Move nozzle to Home before heating
M109 S240 T0 ; Set nozzle temp and wait
G92 E0 ; Set Extruder position to zero
; Uncomment the following lines to enable nozzle purge line along left edge of bed
;G1 Z2.0 F3000 ; Raise Z axis
;G1 X1.1 Y20 Z0.2 F3600.0 ; Move to purge line start position
;G1 Y290 F1500.0 E15 ; Draw first purge line
;G1 X1.4 F3600.0 ; Move to side
;G1 Y20 F1500.0 E30 ; Draw second purge line
;G92 E0 ; Reset Extruder
;G1 Z2.0 F3000 ; Move Z Axis up little to prevent scratching of Heat Bed
;G1 X5 Y20 Z0.2 F3600.0 ; Move over to finish nozzle wipe
;G92 E0

G92 E0
G92 E0
G1 F2700 E-6.5
;LAYER_COUNT:105
;LAYER:0
M107
G1 F300 Z0.4
G0 F2700 X206.055 Y212.601 Z0.4
G1 F300 Z0.4
G0 F2700 X203.633 Y218.253
;TYPE:SKIRT
G1 F300 Z0.2
G1 F2700 E0
G1 F1800 X203.673 Y217.464 E0.02371
G1 X203.792 Y216.683 E0.04743
G1 X203.99 Y215.919 E0.07112
G1 X204.263 Y215.178 E0.09482
G1 X204.611 Y214.469 E0.11853
G1 X205.028 Y213.798 E0.14225
G1 X205.511 Y213.174 E0.16593
G1 X206.055 Y212.601 E0.18965
G1 X206.653 Y212.086 E0.21334
G1 X207.301 Y211.634 E0.23705
G1 X207.991 Y211.25 E0.26076
G1 X208.717 Y210.938 E0.28448
G1 X209.47 Y210.701 E0.30817
G1 X210.243 Y210.541 E0.33187
G1 X211.029 Y210.46 E0.35559
G1 X211.568 Y210.45 E0.37177
G1 X211.609 Y210.181 E0.37994
G1 X211.807 Y209.416 E0.40366
G1 X212.081 Y208.676 E0.42734
G1 X212.429 Y207.967 E0.45105
G1 X212.847 Y207.296 E0.47478
G1 X213.33 Y206.672 E0.49847
G1 X213.873 Y206.099 E0.52216
G1 X214.472 Y205.584 E0.54588
G1 X215.12 Y205.133 E0.56957
G1 X215.811 Y204.749 E0.5933
G1 X216.536 Y204.437 E0.617
G1 X217.289 Y204.2 E0.64069
G1 X218.063 Y204.041 E0.66441
G1 X218.848 Y203.96 E0.6881
G1 X219.25 Y203.95 E0.70017
G1 X234.25 Y203.95 E1.15043
G1 X235.039 Y203.99 E1.17414
G1 X235.819 Y204.109 E1.19783
G1 X236.584 Y204.307 E1.22155
G1 X237.324 Y204.581 E1.24523
G1 X238.033 Y204.929 E1.26894
G1 X238.704 Y205.347 E1.29267
G1 X239.328 Y205.83 E1.31636
G1 X239.901 Y206.373 E1.34005
G1 X240.416 Y206.972 E1.36377
G1 X240.867 Y207.62 E1.38746
G1 X241.251 Y208.311 E1.41119
G1 X241.563 Y209.036 E1.43489
G1 X241.8 Y209.789 E1.45858
G1 X241.936 Y210.45 E1.47884
G1 X243.999 Y210.45 E1.54076
G1 X244.598 Y210.48 E1.55877
G1 X245.199 Y210.45 E1.57683
G1 X254.8 Y210.45 E1.86503
G1 X255.399 Y210.48 E1.88303
G1 X256 Y210.45 E1.90109
G1 X258.068 Y210.45 E1.96317
G1 X258.109 Y210.181 E1.97134
G1 X258.307 Y209.416 E1.99506
G1 X258.581 Y208.676 E2.01874
G1 X258.929 Y207.967 E2.04245
G1 X259.347 Y207.296 E2.06618
G1 X259.83 Y206.672 E2.08987
G1 X260.373 Y206.099 E2.11356
G1 X260.972 Y205.584 E2.13727
G1 X261.62 Y205.133 E2.16097
G1 X262.311 Y204.749 E2.1847
G1 X263.036 Y204.437 E2.20839
G1 X263.789 Y204.2 E2.23209
G1 X264.563 Y204.041 E2.25581
G1 X265.348 Y203.96 E2.2795
G1 X265.75 Y203.95 E2.29157
G1 X280.75 Y203.95 E2.74183
G1 X281.539 Y203.99 E2.76554
G1 X282.319 Y204.109 E2.78923
G1 X283.084 Y204.307 E2.81295
G1 X283.824 Y204.581 E2.83663
G1 X284.533 Y204.929 E2.86034
G1 X285.204 Y205.347 E2.88407
G1 X285.828 Y205.83 E2.90776
G1 X286.401 Y206.373 E2.93145
G1 X286.916 Y206.972 E2.95517
G1 X287.367 Y207.62 E2.97886
G1 X287.751 Y208.311 E3.00259
G1 X288.063 Y209.036 E3.02629
G1 X288.3 Y209.789 E3.04998
G1 X288.436 Y210.45 E3.07024
G1 X288.566 Y210.45 E3.07414
G1 X289.355 Y210.49 E3.09786
G1 X290.135 Y210.609 E3.12154
G1 X290.9 Y210.807 E3.14526
G1 X291.64 Y211.081 E3.16895
G1 X292.349 Y211.429 E3.19265
G1 X293.02 Y211.847 E3.21638
G1 X293.644 Y212.33 E3.24007
G1 X294.217 Y212.873 E3.26377
G1 X294.732 Y213.472 E3.28748
G1 X295.183 Y214.12 E3.31118
G1 X295.567 Y214.811 E3.33491
G1 X295.879 Y215.536 E3.3586
G1 X296.116 Y216.289 E3.38229
G1 X296.275 Y217.063 E3.40601
G1 X296.356 Y217.848 E3.4297
G1 X296.366 Y218.247 E3.44168
G1 X296.367 Y221.247 E3.53173
G1 X296.327 Y222.036 E3.55545
G1 X296.208 Y222.817 E3.57916
G1 X296.01 Y223.581 E3.60285
G1 X295.737 Y224.322 E3.62656
G1 X295.389 Y225.031 E3.65027
G1 X294.972 Y225.702 E3.67398
G1 X294.489 Y226.326 E3.69767
G1 X293.945 Y226.899 E3.72138
G1 X293.347 Y227.414 E3.74507
G1 X292.8 Y227.796 E3.7651
G1 X292.8 Y285.774 E5.50544
G1 X292.774 Y286.416 E5.52473
G1 X292.746 Y286.755 E5.53494
G1 X292.571 Y287.871 E5.56885
G1 X292.472 Y288.299 E5.58203
G1 X292.256 Y289.058 E5.60572
G1 X292.07 Y289.547 E5.62143
G1 X291.928 Y289.887 E5.63249
G1 X291.402 Y290.923 E5.66736
G1 X291.199 Y291.258 E5.67912
G1 X290.512 Y292.219 E5.71458
G1 X290.257 Y292.524 E5.72651
G1 X289.721 Y293.104 E5.75022
G1 X289.278 Y293.503 E5.76812
G1 X288.972 Y293.759 E5.78009
G1 X288.018 Y294.442 E5.81531
G1 X287.684 Y294.645 E5.82704
G1 X286.639 Y295.177 E5.86224
G1 X286.299 Y295.319 E5.8733
G1 X285.556 Y295.587 E5.89701
G1 X285.06 Y295.719 E5.91242
G1 X284.63 Y295.819 E5.92567
G1 X283.505 Y295.996 E5.95985
G1 X283.166 Y296.024 E5.97007
G1 X282.524 Y296.05 E5.98935
G1 X217.476 Y296.05 E7.94192
G1 X216.834 Y296.024 E7.9612
G1 X216.495 Y295.996 E7.97141
G1 X215.37 Y295.819 E8.0056
G1 X214.94 Y295.719 E8.01885
G1 X214.181 Y295.502 E8.04255
G1 X213.701 Y295.319 E8.05797
G1 X213.361 Y295.177 E8.06903
G1 X212.316 Y294.645 E8.10422
G1 X211.982 Y294.442 E8.11596
G1 X211.028 Y293.759 E8.15118
G1 X210.722 Y293.503 E8.16315
G1 X210.143 Y292.967 E8.18684
G1 X209.743 Y292.524 E8.20475
G1 X209.488 Y292.219 E8.21669
G1 X208.801 Y291.258 E8.25215
G1 X208.598 Y290.923 E8.2639
G1 X208.072 Y289.887 E8.29878
G1 X207.93 Y289.547 E8.30984
G1 X207.662 Y288.804 E8.33355
G1 X207.528 Y288.299 E8.34923
G1 X207.429 Y287.871 E8.36242
G1 X207.255 Y286.759 E8.3962
G1 X207.227 Y286.422 E8.40636
G1 X207.2 Y285.776 E8.42576
G1 X207.2 Y227.79 E10.16634
G1 X206.98 Y227.653 E10.17412
G1 X206.356 Y227.17 E10.19781
G1 X205.783 Y226.627 E10.22151
G1 X205.268 Y226.028 E10.24522
G1 X204.817 Y225.38 E10.26892
G1 X204.433 Y224.689 E10.29265
G1 X204.121 Y223.964 E10.31634
G1 X203.884 Y223.211 E10.34004
G1 X203.725 Y222.437 E10.36375
G1 X203.644 Y221.652 E10.38744
G1 X203.634 Y221.253 E10.39942
G1 X203.633 Y218.253 E10.48947
G0 F2700 X204.033 Y218.252
G1 F1800 X204.073 Y217.484 E10.51256
G1 X204.192 Y216.724 E10.53565
G1 X204.389 Y215.981 E10.55872
G1 X204.663 Y215.262 E10.58182
G1 X205.01 Y214.576 E10.6049
G1 X205.426 Y213.929 E10.62799
G1 X205.907 Y213.329 E10.65107
G1 X206.447 Y212.782 E10.67414
G1 X207.042 Y212.294 E10.69724
G1 X207.684 Y211.87 E10.72034
G1 X208.366 Y211.515 E10.74341
G1 X209.082 Y211.233 E10.76651
G1 X209.823 Y211.027 E10.7896
G1 X210.582 Y210.899 E10.8127
G1 X211.433 Y210.85 E10.83829
G1 X211.911 Y210.85 E10.85264
G1 X212.009 Y210.222 E10.87172
G1 X212.207 Y209.479 E10.8948
G1 X212.481 Y208.76 E10.9179
G1 X212.828 Y208.074 E10.94097
G1 X213.244 Y207.427 E10.96406
G1 X213.725 Y206.827 E10.98715
G1 X214.266 Y206.28 E11.01024
G1 X214.861 Y205.792 E11.03334
G1 X215.503 Y205.369 E11.05642
G1 X216.186 Y205.014 E11.07952
G1 X216.901 Y204.733 E11.10258
G1 X217.643 Y204.527 E11.1257
G1 X218.401 Y204.399 E11.14877
G1 X219.25 Y204.35 E11.1743
G1 X234.25 Y204.35 E11.62456
G1 X235.018 Y204.39 E11.64764
G1 X235.778 Y204.509 E11.67073
G1 X236.521 Y204.707 E11.69382
G1 X237.24 Y204.981 E11.71691
G1 X237.926 Y205.328 E11.73999
G1 X238.573 Y205.744 E11.76308
G1 X239.173 Y206.225 E11.78616
G1 X239.72 Y206.766 E11.80925
G1 X240.208 Y207.361 E11.83235
G1 X240.631 Y208.003 E11.85543
G1 X240.986 Y208.686 E11.87854
G1 X241.267 Y209.401 E11.9016
G1 X241.473 Y210.143 E11.92471
G1 X241.592 Y210.85 E11.94623
G1 X243.999 Y210.85 E12.01849
G1 X244.629 Y210.883 E12.03742
G1 X245.199 Y210.85 E12.05456
G1 X254.8 Y210.85 E12.34276
G1 X255.43 Y210.883 E12.36169
G1 X256 Y210.85 E12.37883
G1 X258.411 Y210.85 E12.4512
G1 X258.509 Y210.222 E12.47028
G1 X258.707 Y209.479 E12.49336
G1 X258.981 Y208.76 E12.51646
G1 X259.328 Y208.074 E12.53954
G1 X259.744 Y207.427 E12.56263
G1 X260.225 Y206.827 E12.58571
G1 X260.766 Y206.28 E12.6088
G1 X261.361 Y205.792 E12.6319
G1 X262.003 Y205.369 E12.65498
G1 X262.686 Y205.014 E12.67809
G1 X263.401 Y204.733 E12.70115
G1 X264.143 Y204.527 E12.72426
G1 X264.901 Y204.399 E12.74734
G1 X265.75 Y204.35 E12.77286
G1 X280.75 Y204.35 E13.22312
G1 X281.518 Y204.39 E13.24621
G1 X282.278 Y204.509 E13.2693
G1 X283.021 Y204.707 E13.29238
G1 X283.74 Y204.981 E13.31548
G1 X284.426 Y205.328 E13.33855
G1 X285.073 Y205.744 E13.36164
G1 X285.673 Y206.225 E13.38472
G1 X286.22 Y206.766 E13.40782
G1 X286.708 Y207.361 E13.43092
G1 X287.131 Y208.003 E13.454
G1 X287.486 Y208.686 E13.4771
G1 X287.767 Y209.401 E13.50016
G1 X287.973 Y210.143 E13.52328
G1 X288.092 Y210.85 E13.5448
G1 X288.566 Y210.85 E13.55903
G1 X289.334 Y210.89 E13.58211
G1 X290.094 Y211.009 E13.6052
G1 X290.837 Y211.207 E13.62828
G1 X291.556 Y211.481 E13.65138
G1 X292.242 Y211.828 E13.67446
G1 X292.889 Y212.244 E13.69754
G1 X293.489 Y212.725 E13.72063
G1 X294.036 Y213.266 E13.74372
G1 X294.524 Y213.861 E13.76682
G1 X294.947 Y214.503 E13.7899
G1 X295.302 Y215.186 E13.813
G1 X295.583 Y215.901 E13.83606
G1 X295.789 Y216.643 E13.85918
G1 X295.917 Y217.401 E13.88225
G1 X295.966 Y218.248 E13.90772
G1 X295.967 Y221.248 E13.99777
G1 X295.927 Y222.016 E14.02086
G1 X295.808 Y222.776 E14.04395
G1 X295.611 Y223.519 E14.06702
G1 X295.337 Y224.238 E14.09012
G1 X294.99 Y224.924 E14.1132
G1 X294.574 Y225.571 E14.13629
G1 X294.093 Y226.171 E14.15937
G1 X293.553 Y226.718 E14.18244
G1 X292.958 Y227.206 E14.20554
G1 X292.4 Y227.575 E14.22562
G1 X292.4 Y285.774 E15.9726
G1 X292.375 Y286.383 E15.99089
G1 X292.347 Y286.722 E16.0011
G1 X292.182 Y287.781 E16.03327
G1 X292.083 Y288.209 E16.04646
G1 X291.871 Y288.948 E16.06954
G1 X291.701 Y289.393 E16.08384
G1 X291.559 Y289.733 E16.0949
G1 X291.06 Y290.716 E16.12799
G1 X290.857 Y291.051 E16.13975
G1 X290.205 Y291.963 E16.1734
G1 X289.95 Y292.268 E16.18533
G1 X289.427 Y292.831 E16.2084
G1 X289.021 Y293.197 E16.22481
G1 X288.715 Y293.453 E16.23678
G1 X287.81 Y294.101 E16.27019
G1 X287.476 Y294.304 E16.28193
G1 X286.485 Y294.808 E16.3153
G1 X286.145 Y294.95 E16.32636
G1 X285.421 Y295.21 E16.34945
G1 X284.969 Y295.33 E16.36349
G1 X284.539 Y295.43 E16.37674
G1 X283.472 Y295.597 E16.40916
G1 X283.133 Y295.625 E16.41937
G1 X282.524 Y295.65 E16.43767
G1 X217.476 Y295.65 E18.39023
G1 X216.867 Y295.625 E18.40852
G1 X216.528 Y295.597 E18.41874
G1 X215.461 Y295.43 E18.45115
G1 X215.031 Y295.33 E18.46441
G1 X214.292 Y295.117 E18.48749
G1 X213.855 Y294.95 E18.50153
G1 X213.515 Y294.808 E18.51259
G1 X212.524 Y294.304 E18.54597
G1 X212.19 Y294.101 E18.5577
G1 X211.285 Y293.453 E18.59111
G1 X210.979 Y293.197 E18.60309
G1 X210.415 Y292.673 E18.6262
G1 X210.05 Y292.268 E18.64256
G1 X209.795 Y291.963 E18.6545
G1 X209.143 Y291.051 E18.68815
G1 X208.94 Y290.716 E18.69991
G1 X208.441 Y289.733 E18.733
G1 X208.299 Y289.393 E18.74406
G1 X208.039 Y288.669 E18.76715
G1 X207.917 Y288.209 E18.78143
G1 X207.818 Y287.781 E18.79462
G1 X207.653 Y286.726 E18.82667
G1 X207.625 Y286.389 E18.83682
G1 X207.6 Y285.776 E18.85524
G1 X207.6 Y227.57 E20.60242
G1 X207.111 Y227.256 E20.61987
G1 X206.511 Y226.775 E20.64295
G1 X205.964 Y226.234 E20.66605
G1 X205.476 Y225.639 E20.68914
G1 X205.053 Y224.997 E20.71222
G1 X204.698 Y224.314 E20.73533
G1 X204.417 Y223.599 E20.75839
G1 X204.211 Y222.857 E20.7815
G1 X204.083 Y222.099 E20.80458
G1 X204.034 Y221.252 E20.83005
G1 X204.033 Y218.252 E20.9201
G0 F2700 X204.433 Y218.252
G1 F1800 X204.473 Y217.505 E20.94255
G1 X204.592 Y216.767 E20.96499
G1 X204.789 Y216.045 E20.98746
G1 X205.062 Y215.349 E21.0099
G1 X205.408 Y214.686 E21.03235
G1 X205.823 Y214.063 E21.05482
G1 X206.302 Y213.488 E21.07728
G1 X206.839 Y212.968 E21.09972
G1 X207.429 Y212.508 E21.12218
G1 X208.065 Y212.114 E21.14463
G1 X208.739 Y211.789 E21.16709
G1 X209.444 Y211.539 E21.18955
G1 X210.171 Y211.365 E21.21199
G1 X210.913 Y211.269 E21.23445
G1 X211.433 Y211.25 E21.25006
G1 X212.277 Y211.25 E21.2754
G1 X212.29 Y211.003 E21.28282
G1 X212.409 Y210.265 E21.30526
G1 X212.607 Y209.543 E21.32774
G1 X212.88 Y208.847 E21.35018
G1 X213.227 Y208.184 E21.37264
G1 X213.642 Y207.561 E21.39511
G1 X214.121 Y206.987 E21.41755
G1 X214.658 Y206.466 E21.44001
G1 X215.248 Y206.007 E21.46245
G1 X215.884 Y205.612 E21.48492
G1 X216.558 Y205.288 E21.50737
G1 X217.263 Y205.038 E21.52982
G1 X217.991 Y204.864 E21.55229
G1 X218.733 Y204.769 E21.57475
G1 X219.25 Y204.75 E21.59027
G1 X234.25 Y204.75 E22.04053
G1 X234.997 Y204.79 E22.06299
G1 X235.735 Y204.909 E22.08543
G1 X236.457 Y205.107 E22.1079
G1 X237.153 Y205.38 E22.13034
G1 X237.816 Y205.727 E22.1528
G1 X238.439 Y206.142 E22.17527
G1 X239.013 Y206.621 E22.19772
G1 X239.534 Y207.158 E22.22017
G1 X239.993 Y207.748 E22.24261
G1 X240.388 Y208.384 E22.26509
G1 X240.712 Y209.058 E22.28753
G1 X240.962 Y209.763 E22.30999
G1 X241.136 Y210.491 E22.33246
G1 X241.232 Y211.25 E22.35542
G1 X243.999 Y211.25 E22.43848
G1 X244.584 Y211.281 E22.45606
G1 X244.679 Y211.269 E22.45894
G1 X245.199 Y211.25 E22.47456
G1 X254.8 Y211.25 E22.76275
G1 X255.385 Y211.281 E22.78034
G1 X255.481 Y211.269 E22.78324
G1 X256 Y211.25 E22.79883
G1 X258.777 Y211.25 E22.88219
G1 X258.79 Y211.003 E22.88961
G1 X258.909 Y210.265 E22.91205
G1 X259.107 Y209.543 E22.93452
G1 X259.38 Y208.847 E22.95697
G1 X259.727 Y208.184 E22.97943
G1 X260.142 Y207.561 E23.0019
G1 X260.621 Y206.987 E23.02434
G1 X261.158 Y206.466 E23.0468
G1 X261.748 Y206.007 E23.06924
G1 X262.384 Y205.612 E23.09171
G1 X263.058 Y205.288 E23.11416
G1 X263.763 Y205.038 E23.13661
G1 X264.491 Y204.864 E23.15908
G1 X265.233 Y204.769 E23.18153
G1 X265.75 Y204.75 E23.19706
G1 X280.75 Y204.75 E23.64732
G1 X281.497 Y204.79 E23.66978
G1 X282.235 Y204.909 E23.69222
G1 X282.957 Y205.107 E23.71469
G1 X283.653 Y205.38 E23.73713
G1 X284.316 Y205.727 E23.75959
G1 X284.939 Y206.142 E23.78206
G1 X285.513 Y206.621 E23.8045
G1 X286.034 Y207.158 E23.82696
G1 X286.493 Y207.748 E23.8494
G1 X286.888 Y208.384 E23.87188
G1 X287.212 Y209.058 E23.89432
G1 X287.462 Y209.763 E23.91678
G1 X287.636 Y210.491 E23.93925
G1 X287.732 Y211.25 E23.96221
G1 X288.566 Y211.25 E23.98724
G1 X289.313 Y211.29 E24.0097
G1 X290.051 Y211.409 E24.03214
G1 X290.773 Y211.607 E24.05461
G1 X291.469 Y211.88 E24.07705
G1 X292.132 Y212.227 E24.09951
G1 X292.755 Y212.642 E24.12198
G1 X293.329 Y213.121 E24.14443
G1 X293.85 Y213.658 E24.16688
G1 X294.309 Y214.248 E24.18932
G1 X294.704 Y214.884 E24.2118
G1 X295.028 Y215.558 E24.23424
G1 X295.278 Y216.263 E24.2567
G1 X295.452 Y216.991 E24.27917
G1 X295.547 Y217.733 E24.30162
G1 X295.566 Y218.248 E24.31709
G1 X295.567 Y221.248 E24.40714
G1 X295.527 Y221.995 E24.4296
G1 X295.408 Y222.733 E24.45204
G1 X295.211 Y223.455 E24.4745
G1 X294.938 Y224.151 E24.49694
G1 X294.592 Y224.814 E24.51939
G1 X294.177 Y225.437 E24.54186
G1 X293.698 Y226.012 E24.56432
G1 X293.161 Y226.532 E24.58676
G1 X292.571 Y226.992 E24.60922
G1 X292 Y227.346 E24.62939
G1 X292 Y285.774 E26.38324
G1 X291.976 Y286.35 E26.40054
G1 X291.948 Y286.689 E26.41075
G1 X291.792 Y287.691 E26.44119
G1 X291.693 Y288.119 E26.45438
G1 X291.486 Y288.837 E26.47681
G1 X291.332 Y289.239 E26.48973
G1 X291.19 Y289.579 E26.50079
G1 X290.718 Y290.509 E26.5321
G1 X290.515 Y290.844 E26.54385
G1 X289.898 Y291.706 E26.57567
G1 X289.643 Y292.011 E26.58761
G1 X289.134 Y292.558 E26.61004
G1 X288.765 Y292.89 E26.62494
G1 X288.459 Y293.146 E26.63691
G1 X287.603 Y293.759 E26.66852
G1 X287.269 Y293.962 E26.68025
G1 X286.331 Y294.439 E26.71184
G1 X285.991 Y294.581 E26.7229
G1 X285.286 Y294.832 E26.74536
G1 X284.879 Y294.94 E26.758
G1 X284.449 Y295.04 E26.77125
G1 X283.439 Y295.198 E26.80194
G1 X283.1 Y295.226 E26.81215
G1 X282.524 Y295.25 E26.82945
G1 X217.476 Y295.25 E28.78202
