;FLAVOR:Marlin
;TIME:9794
;Filament used: 10.1269m
;Layer height: 0.2
;MINX:216.133
;MINY:215.95
;MINZ:0.2
;MAXX:283.867
;MAXY:284.05
;MAXZ:25.2
;Generated with Cura_SteamEngine 5.0.0
M82 ;absolute extrusion mode
; X5SA Start Code
G21 ; Set units to millimeters
G90 ; Set all axis to Absolute
M82 ; Set extrusion to Absolute
M107 ; Disable all fans
M190 S85 ; Set bed temperature and wait
G28 ; Home all axis
; Uncomment the line below to enable ABL Mesh probing
;G29 ; Probe bed mesh for ABL
; For best results do not run nozzle heater while performing ABL
G1 Z5.0 ; Raise nozzle to prevent scratching of heat bed
G1 X0 Y0 ; Move nozzle to Home before heating
M109 S240 T0 ; Set nozzle temp and wait
G92 E0 ; Set Extruder position to zero
; Uncomment the following lines to enable nozzle purge line along left edge of bed
;G1 Z2.0 F3000 ; Raise Z axis
;G1 X1.1 Y20 Z0.2 F3600.0 ; Move to purge line start position
;G1 Y290 F1500.0 E15 ; Draw first purge line
;G1 X1.4 F3600.0 ; Move to side
;G1 Y20 F1500.0 E30 ; Draw second purge line
;G92 E0 ; Reset Extruder
;G1 Z2.0 F3000 ; Move Z Axis up little to prevent scratching of Heat Bed
;G1 X5 Y20 Z0.2 F3600.0 ; Move over to finish nozzle wipe
;G92 E0

G92 E0
G92 E0
G1 F2700 E-6.5
;LAYER_COUNT:125
;LAYER:0
M107
G1 F300 Z0.4
G0 F2700 X218.555 Y218.1 Z0.4
G1 F300 Z0.4
G0 F2700 X216.133 Y223.752
;TYPE:SKIRT
G1 F300 Z0.2
G1 F2700 E0
G1 F1800 X216.173 Y222.963 E0.02371
G1 X216.292 Y222.182 E0.04743
G1 X216.49 Y221.418 E0.07112
G1 X216.764 Y220.677 E0.09483
G1 X217.111 Y219.968 E0.11853
G1 X217.529 Y219.298 E0.14223
G1 X218.012 Y218.673 E0.16594
G1 X218.555 Y218.1 E0.18964
G1 X219.154 Y217.585 E0.21335
G1 X219.802 Y217.134 E0.23705
G1 X220.492 Y216.75 E0.26075
G1 X221.218 Y216.438 E0.28447
G1 X221.971 Y216.201 E0.30817
G1 X222.744 Y216.041 E0.33186
G1 X223.53 Y215.96 E0.35558
G1 X223.933 Y215.95 E0.36768
G1 X225.359 Y215.95 E0.41049
G1 X225.958 Y215.98 E0.42849
G1 X226.559 Y215.95 E0.44655
G1 X273.44 Y215.95 E1.85379
G1 X274.039 Y215.98 E1.8718
G1 X274.64 Y215.95 E1.88986
G1 X276.066 Y215.95 E1.93266
G1 X276.855 Y215.99 E1.95638
G1 X277.635 Y216.109 E1.98006
G1 X278.4 Y216.307 E2.00378
G1 X279.14 Y216.581 E2.02747
G1 X279.849 Y216.929 E2.05118
G1 X280.52 Y217.347 E2.07491
G1 X281.144 Y217.83 E2.09859
G1 X281.717 Y218.373 E2.12229
G1 X282.232 Y218.972 E2.146
G1 X282.683 Y219.62 E2.1697
G1 X283.067 Y220.311 E2.19343
G1 X283.379 Y221.036 E2.21712
G1 X283.616 Y221.789 E2.24082
G1 X283.775 Y222.563 E2.26454
G1 X283.856 Y223.348 E2.28822
G1 X283.866 Y223.748 E2.30024
G1 X283.867 Y228.748 E2.45032
G1 X283.827 Y229.537 E2.47404
G1 X283.708 Y230.318 E2.49775
G1 X283.51 Y231.082 E2.52144
G1 X283.236 Y231.823 E2.54516
G1 X282.889 Y232.532 E2.56885
G1 X282.471 Y233.202 E2.59255
G1 X281.988 Y233.827 E2.61626
G1 X281.445 Y234.4 E2.63996
G1 X280.846 Y234.915 E2.66367
G1 X280.198 Y235.366 E2.68737
G1 X279.508 Y235.75 E2.71107
G1 X278.782 Y236.062 E2.73479
G1 X278.029 Y236.299 E2.75849
G1 X277.8 Y236.346 E2.76551
G1 X277.8 Y273.757 E3.88848
G1 X277.773 Y274.403 E3.90789
G1 X277.742 Y274.776 E3.91913
G1 X277.563 Y275.91 E3.95359
G1 X277.469 Y276.311 E3.96595
G1 X277.25 Y277.07 E3.98966
G1 X277.077 Y277.527 E4.00433
G1 X276.931 Y277.878 E4.01574
G1 X276.407 Y278.913 E4.05057
G1 X276.209 Y279.241 E4.06207
G1 X275.767 Y279.896 E4.08579
G1 X275.258 Y280.521 E4.10998
G1 X274.721 Y281.101 E4.13371
G1 X274.275 Y281.504 E4.15175
G1 X273.964 Y281.764 E4.16392
G1 X273.001 Y282.452 E4.19944
G1 X272.674 Y282.65 E4.21092
G1 X271.63 Y283.18 E4.24606
G1 X271.279 Y283.326 E4.25748
G1 X270.535 Y283.592 E4.28119
G1 X270.073 Y283.716 E4.29555
G1 X269.67 Y283.811 E4.30798
G1 X268.526 Y283.992 E4.34275
G1 X268.153 Y284.023 E4.35398
G1 X267.507 Y284.05 E4.37339
G1 X232.493 Y284.05 E5.42441
G1 X231.847 Y284.023 E5.44382
G1 X231.474 Y283.992 E5.45506
G1 X230.33 Y283.811 E5.48982
G1 X229.927 Y283.716 E5.50225
G1 X229.169 Y283.496 E5.52595
G1 X228.721 Y283.326 E5.54033
G1 X228.37 Y283.18 E5.55174
G1 X227.326 Y282.65 E5.58688
G1 X226.999 Y282.452 E5.59836
G1 X226.036 Y281.764 E5.63389
G1 X225.725 Y281.504 E5.64605
G1 X225.146 Y280.968 E5.66974
G1 X224.742 Y280.521 E5.68782
G1 X224.483 Y280.211 E5.69995
G1 X224.008 Y279.58 E5.72366
G1 X223.791 Y279.241 E5.73574
G1 X223.593 Y278.913 E5.74724
G1 X223.069 Y277.878 E5.78206
G1 X222.923 Y277.527 E5.79347
G1 X222.657 Y276.783 E5.81719
G1 X222.531 Y276.311 E5.83185
G1 X222.437 Y275.91 E5.84422
G1 X222.258 Y274.779 E5.87859
G1 X222.227 Y274.408 E5.88977
G1 X222.2 Y273.759 E5.90926
G1 X222.2 Y236.348 E7.03224
G1 X221.6 Y236.193 E7.05084
G1 X220.86 Y235.919 E7.07453
G1 X220.151 Y235.571 E7.09824
G1 X219.48 Y235.153 E7.12197
G1 X218.856 Y234.67 E7.14565
G1 X218.283 Y234.127 E7.16935
G1 X217.768 Y233.528 E7.19306
G1 X217.317 Y232.88 E7.21676
G1 X216.933 Y232.189 E7.24049
G1 X216.621 Y231.464 E7.26418
G1 X216.384 Y230.711 E7.28788
G1 X216.225 Y229.937 E7.3116
G1 X216.144 Y229.152 E7.33528
G1 X216.134 Y228.752 E7.34729
G1 X216.133 Y223.752 E7.49738
G0 F2700 X216.533 Y223.751
G1 F1800 X216.573 Y222.983 E7.52047
G1 X216.692 Y222.224 E7.54353
G1 X216.89 Y221.48 E7.56664
G1 X217.163 Y220.761 E7.58972
G1 X217.51 Y220.075 E7.6128
G1 X217.926 Y219.428 E7.63589
G1 X218.407 Y218.828 E7.65897
G1 X218.948 Y218.281 E7.68207
G1 X219.543 Y217.793 E7.70516
G1 X220.185 Y217.369 E7.72826
G1 X220.867 Y217.015 E7.75132
G1 X221.583 Y216.733 E7.77442
G1 X222.324 Y216.527 E7.79751
G1 X223.083 Y216.399 E7.82061
G1 X223.933 Y216.35 E7.84617
G1 X225.359 Y216.35 E7.88898
G1 X225.989 Y216.383 E7.90791
G1 X226.559 Y216.35 E7.92505
G1 X273.44 Y216.35 E9.33229
G1 X274.07 Y216.383 E9.35123
G1 X274.64 Y216.35 E9.36837
G1 X276.066 Y216.35 E9.41117
G1 X276.834 Y216.39 E9.43426
G1 X277.594 Y216.509 E9.45735
G1 X278.337 Y216.707 E9.48043
G1 X279.056 Y216.981 E9.50352
G1 X279.742 Y217.328 E9.5266
G1 X280.389 Y217.744 E9.54969
G1 X280.989 Y218.225 E9.57277
G1 X281.536 Y218.766 E9.59587
G1 X282.024 Y219.361 E9.61897
G1 X282.447 Y220.003 E9.64204
G1 X282.802 Y220.686 E9.66515
G1 X283.083 Y221.401 E9.68821
G1 X283.289 Y222.143 E9.71133
G1 X283.417 Y222.901 E9.7344
G1 X283.466 Y223.749 E9.7599
G1 X283.467 Y228.749 E9.90998
G1 X283.427 Y229.517 E9.93307
G1 X283.308 Y230.276 E9.95613
G1 X283.11 Y231.02 E9.97924
G1 X282.837 Y231.739 E10.00233
G1 X282.49 Y232.425 E10.0254
G1 X282.074 Y233.072 E10.04849
G1 X281.593 Y233.672 E10.07157
G1 X281.052 Y234.219 E10.09467
G1 X280.457 Y234.707 E10.11777
G1 X279.815 Y235.131 E10.14086
G1 X279.133 Y235.485 E10.16393
G1 X278.417 Y235.767 E10.18703
G1 X277.676 Y235.973 E10.21011
G1 X277.4 Y236.02 E10.21852
G1 X277.4 Y273.757 E11.35128
G1 X277.375 Y274.37 E11.36969
G1 X277.344 Y274.743 E11.38093
G1 X277.174 Y275.819 E11.41363
G1 X277.08 Y276.22 E11.42599
G1 X276.865 Y276.959 E11.44909
G1 X276.707 Y277.373 E11.4624
G1 X276.561 Y277.724 E11.47381
G1 X276.064 Y278.706 E11.50684
G1 X275.866 Y279.034 E11.51834
G1 X275.21 Y279.955 E11.55229
G1 X274.951 Y280.265 E11.56441
G1 X274.428 Y280.828 E11.58748
G1 X274.018 Y281.197 E11.60404
G1 X273.707 Y281.457 E11.6162
G1 X272.794 Y282.11 E11.6499
G1 X272.467 Y282.308 E11.66137
G1 X271.476 Y282.81 E11.69472
G1 X271.125 Y282.956 E11.70613
G1 X270.4 Y283.215 E11.72924
G1 X269.981 Y283.327 E11.74226
G1 X269.578 Y283.422 E11.75469
G1 X268.493 Y283.594 E11.78766
G1 X268.12 Y283.625 E11.7989
G1 X267.507 Y283.65 E11.81731
G1 X232.493 Y283.65 E12.86834
G1 X231.88 Y283.625 E12.88675
G1 X231.507 Y283.594 E12.89799
G1 X230.422 Y283.422 E12.93096
G1 X230.019 Y283.327 E12.94339
G1 X229.281 Y283.111 E12.96647
G1 X228.875 Y282.956 E12.97952
G1 X228.524 Y282.81 E12.99093
G1 X227.533 Y282.308 E13.02428
G1 X227.206 Y282.11 E13.03575
G1 X226.293 Y281.457 E13.06945
G1 X225.982 Y281.197 E13.08161
G1 X225.418 Y280.674 E13.1047
G1 X225.049 Y280.265 E13.12124
G1 X224.79 Y279.955 E13.13336
G1 X224.134 Y279.034 E13.1673
G1 X223.936 Y278.706 E13.17881
G1 X223.439 Y277.724 E13.21184
G1 X223.293 Y277.373 E13.22325
G1 X223.034 Y276.648 E13.24636
G1 X222.92 Y276.22 E13.25966
G1 X222.826 Y275.819 E13.27202
G1 X222.657 Y274.746 E13.30463
G1 X222.626 Y274.375 E13.3158
G1 X222.6 Y273.759 E13.33431
G1 X222.6 Y236.021 E14.4671
G1 X222.406 Y235.991 E14.47299
G1 X221.663 Y235.793 E14.49608
G1 X220.944 Y235.519 E14.51917
G1 X220.258 Y235.172 E14.54225
G1 X219.611 Y234.756 E14.56534
G1 X219.011 Y234.275 E14.58842
G1 X218.464 Y233.734 E14.61151
G1 X217.976 Y233.139 E14.63461
G1 X217.553 Y232.497 E14.65769
G1 X217.198 Y231.814 E14.6808
G1 X216.917 Y231.099 E14.70386
G1 X216.711 Y230.357 E14.72697
G1 X216.583 Y229.599 E14.75005
G1 X216.534 Y228.751 E14.77554
G1 X216.533 Y223.751 E14.92563
G0 F2700 X216.933 Y223.751
G1 F1800 X216.973 Y223.004 E14.94809
G1 X217.092 Y222.266 E14.97053
G1 X217.29 Y221.544 E14.993
G1 X217.563 Y220.848 E15.01544
G1 X217.909 Y220.185 E15.03789
G1 X218.324 Y219.562 E15.06036
G1 X218.803 Y218.988 E15.0828
G1 X219.34 Y218.467 E15.10526
G1 X219.93 Y218.007 E15.12772
G1 X220.566 Y217.613 E15.15017
G1 X221.24 Y217.289 E15.17262
G1 X221.945 Y217.038 E15.19508
G1 X222.672 Y216.864 E15.21752
G1 X223.414 Y216.769 E15.23998
G1 X223.933 Y216.75 E15.25557
G1 X225.359 Y216.75 E15.29837
G1 X225.944 Y216.781 E15.31596
G1 X226.04 Y216.769 E15.31886
G1 X226.559 Y216.75 E15.33445
G1 X273.44 Y216.75 E16.74169
G1 X274.025 Y216.781 E16.75927
G1 X274.121 Y216.769 E16.76218
G1 X274.64 Y216.75 E16.77777
G1 X276.066 Y216.75 E16.82057
G1 X276.813 Y216.79 E16.84303
G1 X277.551 Y216.909 E16.86547
G1 X278.273 Y217.107 E16.88794
G1 X278.969 Y217.38 E16.91038
G1 X279.632 Y217.727 E16.93284
G1 X280.255 Y218.142 E16.95531
G1 X280.829 Y218.621 E16.97775
G1 X281.35 Y219.158 E17.00021
G1 X281.809 Y219.748 E17.02265
G1 X282.204 Y220.384 E17.04512
G1 X282.528 Y221.058 E17.06757
G1 X282.778 Y221.763 E17.09003
G1 X282.952 Y222.491 E17.11249
G1 X283.047 Y223.233 E17.13495
G1 X283.066 Y223.749 E17.15045
G1 X283.067 Y228.749 E17.30053
G1 X283.027 Y229.496 E17.32299
G1 X282.908 Y230.234 E17.34543
G1 X282.71 Y230.956 E17.3679
G1 X282.437 Y231.652 E17.39034
G1 X282.091 Y232.315 E17.41279
G1 X281.676 Y232.938 E17.43526
G1 X281.197 Y233.512 E17.4577
G1 X280.66 Y234.033 E17.48016
G1 X280.07 Y234.493 E17.50262
G1 X279.434 Y234.887 E17.52508
G1 X278.76 Y235.211 E17.54752
G1 X278.055 Y235.462 E17.56999
G1 X277.328 Y235.636 E17.59243
G1 X277 Y235.678 E17.60235
G1 X277 Y273.757 E18.74538
G1 X276.976 Y274.337 E18.7628
G1 X276.945 Y274.71 E18.77404
G1 X276.784 Y275.728 E18.80498
G1 X276.69 Y276.129 E18.81734
G1 X276.481 Y276.847 E18.83979
G1 X276.338 Y277.219 E18.85175
G1 X276.192 Y277.57 E18.86316
G1 X275.722 Y278.5 E18.89444
G1 X275.524 Y278.828 E18.90594
G1 X274.903 Y279.698 E18.93803
G1 X274.644 Y280.008 E18.95015
G1 X274.134 Y280.556 E18.97262
G1 X273.762 Y280.89 E18.98763
G1 X273.451 Y281.15 E18.9998
G1 X272.587 Y281.768 E19.03168
G1 X272.26 Y281.966 E19.04316
G1 X271.322 Y282.441 E19.07472
G1 X270.971 Y282.587 E19.08613
G1 X270.266 Y282.837 E19.10858
G1 X269.889 Y282.937 E19.12029
G1 X269.486 Y283.032 E19.13272
G1 X268.46 Y283.195 E19.1639
G1 X268.087 Y283.226 E19.17514
G1 X267.507 Y283.25 E19.19256
G1 X232.493 Y283.25 E20.24359
G1 X231.913 Y283.226 E20.26101
G1 X231.54 Y283.195 E20.27225
G1 X230.514 Y283.032 E20.30343
G1 X230.111 Y282.937 E20.31586
G1 X229.393 Y282.727 E20.33832
G1 X229.029 Y282.587 E20.35002
G1 X228.678 Y282.441 E20.36143
G1 X227.74 Y281.966 E20.39299
G1 X227.413 Y281.768 E20.40447
G1 X226.549 Y281.15 E20.43636
G1 X226.238 Y280.89 E20.44852
G1 X225.691 Y280.381 E20.47095
G1 X225.356 Y280.008 E20.486
G1 X225.097 Y279.698 E20.49813
G1 X224.476 Y278.828 E20.53021
G1 X224.278 Y278.5 E20.54171
G1 X223.808 Y277.57 E20.57299
G1 X223.662 Y277.219 E20.5844
G1 X223.412 Y276.514 E20.60686
G1 X223.31 Y276.129 E20.61881
G1 X223.216 Y275.728 E20.63117
G1 X223.055 Y274.713 E20.66202
G1 X223.024 Y274.342 E20.6732
G1 X223 Y273.759 E20.69071
G1 X223 Y235.68 E21.83374
G1 X222.449 Y235.591 E21.8505
G1 X221.727 Y235.393 E21.87297
G1 X221.031 Y235.12 E21.89541
G1 X220.368 Y234.773 E21.91787
G1 X219.745 Y234.358 E21.94034
G1 X219.171 Y233.879 E21.96278
G1 X218.65 Y233.342 E21.98524
G1 X218.191 Y232.752 E22.00768
G1 X217.796 Y232.116 E22.03015
G1 X217.472 Y231.442 E22.0526
G1 X217.222 Y230.737 E22.07505
G1 X217.048 Y230.009 E22.09752
G1 X216.953 Y229.267 E22.11998
G1 X216.934 Y228.751 E22.13548
G1 X216.933 Y223.751 E22.28556
G0 F2700 X217.333 Y223.751
G1 F1800 X217.373 Y223.026 E22.30736
G1 X217.492 Y222.31 E22.32915
G1 X217.689 Y221.61 E22.35097
G1 X217.962 Y220.937 E22.37278
G1 X218.308 Y220.298 E22.39459
G1 X218.721 Y219.701 E22.41638
G1 X219.197 Y219.153 E22.43817
G1 X219.731 Y218.66 E22.45998
G1 X220.316 Y218.229 E22.48179
G1 X220.945 Y217.865 E22.50361
G1 X221.609 Y217.573 E22.52538
G1 X222.302 Y217.355 E22.54719
G1 X223.015 Y217.214 E22.56901
G1 X223.933 Y217.15 E22.59663
G1 X225.359 Y217.15 E22.63943
G1 X226.029 Y217.187 E22.65957
G1 X226.559 Y217.15 E22.67552
G1 X273.44 Y217.15 E24.08276
G1 X274.11 Y217.187 E24.1029
G1 X274.64 Y217.15 E24.11885
G1 X276.066 Y217.15 E24.16166
G1 X276.791 Y217.19 E24.18345
G1 X277.508 Y217.309 E24.20527
G1 X278.207 Y217.507 E24.22708
G1 X278.88 Y217.78 E24.24888
G1 X279.519 Y218.125 E24.27068
G1 X280.116 Y218.539 E24.29248
G1 X280.664 Y219.015 E24.31427
G1 X281.157 Y219.549 E24.33609
G1 X281.587 Y220.134 E24.35788
G1 X281.951 Y220.763 E24.3797
G1 X282.244 Y221.428 E24.40151
G1 X282.462 Y222.121 E24.42332
G1 X282.602 Y222.833 E24.4451
G1 X282.666 Y223.749 E24.47266
G1 X282.667 Y228.749 E24.62275
G1 X282.627 Y229.474 E24.64454
G1 X282.508 Y230.19 E24.66633
G1 X282.311 Y230.89 E24.68816
G1 X282.038 Y231.563 E24.70996
G1 X281.692 Y232.202 E24.73177
G1 X281.279 Y232.799 E24.75356
G1 X280.803 Y233.347 E24.77535
G1 X280.269 Y233.84 E24.79717
G1 X279.684 Y234.271 E24.81898
G1 X279.055 Y234.635 E24.84079
G1 X278.391 Y234.927 E24.86256
G1 X277.698 Y235.145 E24.88437
G1 X276.985 Y235.286 E24.90619
G1 X276.6 Y235.313 E24.91777
G1 X276.6 Y273.757 E26.07176
G1 X276.577 Y274.304 E26.08819
G1 X276.546 Y274.677 E26.09943
G1 X276.395 Y275.636 E26.12857
G1 X276.301 Y276.037 E26.14093
G1 X275.969 Y277.066 E26.17339
G1 X275.823 Y277.417 E26.1848
G1 X275.379 Y278.293 E26.21428
G1 X275.181 Y278.621 E26.22578
G1 X274.596 Y279.442 E26.25604
G1 X274.337 Y279.752 E26.26816
G1 X273.841 Y280.283 E26.28998
G1 X273.505 Y280.584 E26.30352
G1 X273.194 Y280.844 E26.31568
G1 X272.379 Y281.426 E26.34575
G1 X272.052 Y281.624 E26.35722
G1 X271.169 Y282.072 E26.38694
G1 X270.818 Y282.218 E26.39835
G1 X269.797 Y282.548 E26.43056
G1 X269.394 Y282.643 E26.44299
G1 X268.427 Y282.796 E26.47238
G1 X268.054 Y282.827 E26.48361
G1 X267.507 Y282.85 E26.50005
G1 X232.493 Y282.85 E27.55107
G1 X231.946 Y282.827 E27.56751
G1 X231.573 Y282.796 E27.57874
G1 X230.606 Y282.643 E27.60813
G1 X230.203 Y282.548 E27.62056
G1 X229.182 Y282.218 E27.65277
G1 X228.831 Y282.072 E27.66418
G1 X227.948 Y281.624 E27.6939
G1 X227.621 Y281.426 E27.70537
G1 X226.806 Y280.844 E27.73544
G1 X226.495 Y280.584 E27.7476
G1 X225.964 Y280.088 E27.76941
G1 X225.663 Y279.752 E27.78296
G1 X225.404 Y279.442 E27.79508
G1 X224.819 Y278.621 E27.82534
G1 X224.621 Y278.293 E27.83684
G1 X224.177 Y277.417 E27.86632
G1 X224.031 Y277.066 E27.87773
G1 X223.699 Y276.037 E27.91019
G1 X223.605 Y275.636 E27.92255
G1 X223.454 Y274.68 E27.9516
G1 X223.423 Y274.309 E27.96278
G1 X223.4 Y273.759 E27.9793
G1 X223.4 Y235.321 E29.13311
G1 X223.209 Y235.31 E29.13885
G1 X222.492 Y235.191 E29.16067
G1 X221.793 Y234.993 E29.18247
G1 X221.12 Y234.72 E29.20427
G1 X220.481 Y234.375 E29.22607
G1 X219.884 Y233.961 E29.24788
G1 X219.336 Y233.485 E29.26967
G1 X218.843 Y232.951 E29.29149
G1 X218.413 Y232.366 E29.31328
G1 X218.049 Y231.737 E29.33509
G1 X217.756 Y231.072 E29.35691
G1 X217.538 Y230.379 E29.37871
G1 X217.398 Y229.667 E29.40049
G1 X217.334 Y228.751 E29.42806
G1 X217.333 Y223.751 E29.57814
G0 F2700 X217.733 Y223.751
G1 F1800 X217.773 Y223.048 E29.59928
G1 X217.892 Y222.355 E29.62039
G1 X218.089 Y221.679 E29.64152
G1 X218.362 Y221.03 E29.66266
G1 X218.706 Y220.416 E29.68378
G1 X219.118 Y219.845 E29.70492
G1 X219.591 Y219.324 E29.72604
G1 X220.121 Y218.86 E29.74719
